X:1
T:ST. JOHN PASSION
T:Heinrich Schütz ( 1585- 1672 ) edited by Cristopher Martin after Peter Kaplan
T:John 18v1 -  19v30 
T:ST. JOHN PASSION
T:according to St. John and the English NRSV
C:Heinrich Schütz ( 1585- 1672 )
C:edited by Cristopher Martin after Peter Kaplan
Z:John 18v1 -  19v30
%%score [ 1 2 3 4 ]
L:1/8
M:4/4
K:C
V:1 treble nm="Soprano"
V:2 treble transpose=-12 nm="Alto"
V:3 treble-8 transpose=-12 nm="Tenor"
V:4 bass nm="Bass"
V:1
"^Introit" z8 | z8 | z8 | z8 | z8 | (E4 B4) | c4 B2 e2- | e2 d2 (c2 B2) | A4 A4 | (B2 c4) B2 | c8 | %11
w: |||||The _|Pas- sion of|_ our Lord _|Je- sus,|Je- * sus|Christ,|
 z2 (c4 A2) | (c2 d2 cABG | A2 B2 G4) | (G2 E2) (G2 A2 | GEFD E3 D/C/ | D4 C4) | z2 c2 B2 BB | %18
w: as _|told, _ _ _ _ _|_ _ _|as _ told, _|_ _ _ _ _ _ _||as told by the|
 cc/c/ cB (A4 | B2 G2) (d4- | d4 G4) | z4 z2 A2 | ^F2 FF GG/G/ G=F | (E4 A4) | ^GGGG A3 =G | %25
w: ho- ly e- van- gel- list|_ _ John,|_ _|as|told by the ho- ly e- van- ge-|list _|John, as told by John, as|
 =F2 E2 E4- | E2 e2 ^c3 c | d4 z d BA | G4 z2 A2 | F2 FF GG/G/ GF | E4 z2 F2 | D2 DD EE/E/ ED | %32
w: told by John,|_ as told by|John, as told by|John, as|told by the ho- ly e- van- ge-|list, as|told by the ho- ly e- van- ge-|
 C4 z2 E2 | (c3 B) A4 | ^G8 || z8 | z12 | z2 z2 z4 z8 z8 z8 z4 | z24 | z24 | z2 z2 z4 z8 z8 z8 | %41
w: list, as|told _ by|John.|||||||
 z32 | z28 | z2 z2 z4 z8 z8 z8 z8 | z2 z2 z4 z8 z4 | z12 | z16 | z32 | z22 | z8 | z20 | z8 | z8 | %53
w: ||||||||||||
 z8 | z8 | z8 | z8 | z18 | z8 | z8 | z8 | z8 | z8 | z8 | z8 ||[M:3/4]"^II. Chorus" z6 | z6 | %67
w: ||||||||||||||
 B2 B2 c2 | B3 B E2 | d2 d2 z2 | B2 B2 z2 | c2 c2 z2 | A2 A2 A2 | G4 G2 | G4 z2 | z2 c2 c2 | %76
w: Je- sus of|Na- za- reth,|Je- sus,|Je- sus,|Je- sus,|Je- sus, of|Na- za-|reth,|Je- sus|
 B2 A3 A | !fermata!^G6 || z6 | z18 | z6 | z6 | z6 | z6 | z6 | z6 | z6 | z6 | z6 | z6 | z14 | z6 | %92
w: of Na- za-|reth.|||||||||||||||
 z6 | z6 | z6 | z6 | z6 | z6 | z6 | z6 | z6 | z6 | z20 | z16 | z18 | z14 | z28 | z20 | z6 | z20 | %110
w: ||||||||||||||||||
 z6 | z6 | z6 | z6 | z6 | z6 | z6 | z6 | z16 | z6 | z6 | z6 | z6 | z6 | z6 | %125
w: |||||||||||||||
[M:3/4]"^IV. Chorus" z6 | z6 | B2 B2 c2 | B3 B E2 | d2 d2 z2 | B2 B2 z2 | c2 c2 z2 | A2 A2 A2 | %133
w: ||Je- sus of|Na- za- reth,|Je- sus,|Je- sus,|Je- sus,|Je- sus, of|
 G4 G2 | G4 z2 | z2 c2 c2 | B2 A3 A | ^G6 || z6 | z6 | z18 | z6 | z6 | z6 | z6 | z6 | z6 | z6 | %148
w: Na- za-|reth,|Je- sus|of Na- za-|reth.|||||||||||
 z6 | z6 | z6 | z6 | z28 | z22 | z20 | z6 | z6 | z2 z2 z4 z8 z8 z4 z2 | z36 | z16 | z14 | z10 | %162
w: ||||||||||||||
 z16 | z18 | z20 | z18 | z6 | z6 | z6 | z6 | z6 | z6 | z26 | z20 | z24 | z6 | z24 | z18 | %178
w: ||||||||||||||||
 z2 z2 z4 z8 z8 z2 | z20 | z28 | z24 | z30 | z36 | z2 z2 z4 z8 z8 z8 z8 | z2 z2 z4 z8 z8 z8 | %186
w: ||||||||
 z2 z2 z4 z8 z8 z8 z4 z2 | z30 | z2 z2 z4 z8 z8 z8 z8 | z26 | z20 | z22 | z6 | z40 | z6 | z14 | %196
w: ||||||||||
 z6 | z6 | z6 | z6 | z6 | z6 | z6 | z6 | z6 | z2 z2 z4 z8 z8 z2 | z20 | z16 | z36 | z38 | %210
w: ||||||||||||||
 z2 z2 z4 z8 z8 z8 z4 | z18 | z20 | z6 | z6 | z6 | z6 | z6 | z6 | z6 | z6 | z6 | z6 | z6 | z6 | %225
w: |||||||||||||||
 z6 | z34 | z30 | z16 | z24 | z26 | z18 | z24 | z24 | z20 | z22 | z6 | z6 | z6 | z6 | z6 | z16 | %242
w: |||||||||||||||||
 z36 | z14 | z6 | z34 | z6 | z6 | z6 | z6 | z6 | z6 | z6 | z14 | z6 | z6 | z6 | z6 | z6 | z6 | z6 | %261
w: |||||||||||||||||||
 z6 | z24 | z28 | z24 | z18 | z6 | z6 | z6 | z22 | z24 | z2 z2 z4 z8 z8 z8 z8 | z18 | %273
w: ||||||||||||
"^VI. Chorus" z8 | z4 D2 d2 | B2 BB c2 B2 | A4 A4 | z2 G4 A2 | B2 B2 A4 | ^G8 || z6 | z28 | z6 | %283
w: |Are you|not one of his di-|sci- ples,|one of|his di- sci-|ples?||||
 z6 | z6 | z6 | z6 | z16 | z6 | z6 | z6 | z6 | z6 | z6 | z6 | z6 | z6 | z6 | z6 | z6 | z6 | z24 | %302
w: |||||||||||||||||||
 z22 | z30 | z6 | z6 | z6 | z6 | z6 | z6 | z6 | z30 | z6 | z6 | z6 | z6 | z24 | z26 | %318
w: ||||||||||||||||
 z2 z2 z4 z8 z8 z8 z4 | z16 | z2 z2 z4 z8 z8 z4 z2 | z28 | z30 | z2 z2 z4 z8 z4 | z12 | z6 | z24 | %327
w: |||||||||
 z2 z2 z4 z8 | z6 | z6 | z16 | z6 | z6 | z6 | z6 | z6 |"^VIII. Chorus" z8 | z8 | z4 B2 A2 | %339
w: |||||||||||If this|
 B2 c2 d2 z e | B2 c2 c3 B | c4 z2 GG | EEEE A2 z A | GGGG c4 | BB (e3 d | c2 A3 G F2- | F2 E2 E4 | %347
w: man were not, were|not a cri- mi-|nal we would|not have han- ded him, would|not have han- ded him|ov- er, o- *|* * * ver|_ to you,|
 z2 AA AAAA | B2 z B BBBB | c2 z c cccd | e4 z2 GG | c3 B A3 G | F2) F2 E4 | !fermata!E8 || z6 | %355
w: we would not have han- ded|him, would not have han- ded|him, would not have han- *|him ov- er,|o- * * *|* ver to|you.||
 z22 | z6 | z6 | z6 | z6 | z6 | z6 | z6 | z18 | z14 | z20 | z6 | z6 | z6 | z6 | z6 | z22 | z6 | %373
w: ||||||||||||||||||
 z6 | z6 | z6 | z6 | z6 |[M:2/2]"^X. Chorus" A2 A2 e2 B2 | c2 ^G2 A2 A2 | B2 c2 A2 c2 | B4 z4 | %382
w: |||||We are not per-|mit- ted to put|a- ny- one to|death,|
 z8 | B2 B2 e2 B2 | (c2 ^G2 A2) A2 | ^G8 || z8 | z28 | z2 z2 z4 z8 z8 z8 z4 z2 | z30 | z14 | z18 | %392
w: |to put a- ny-|one _ _ to|death.|||||||
 z8 | z26 | z8 | z8 | z8 | z8 | z8 | z2 z2 z4 z8 z2 | z8 | z8 | z8 | z8 | z8 | z8 | z8 | z8 | z22 | %409
w: |||||||||||||||||
 z2 z2 z4 z8 z8 z4 z2 | z8 | z16 | z8 | z8 | z8 | z8 | z8 | z8 | z2 z2 z4 z8 z4 | %419
w: ||||||||||
 z2 z2 z4 z8 z8 z8 z8 z4 | z2 z2 z4 z8 | z8 | z8 | z8 | z8 | z8 | z8 | z8 | z8 | z8 | z8 | z8 | %432
w: |||||||||||||
 z2 z2 z4 z8 z4 | z8 | z8 | z8 | z8 | z8 | z8 | x8 | z28 | z24 | z2 z2 z4 z8 z8 z8 z8 z8 z4 z2 | %443
w: |||||||||||
 z14 | z22 | z8 | z8 | z8 | z8 | z8 | z18 | z2 z2 z4 z4 z2 | z8 | z8 | z8 | z8 | z8 | z22 | z8 | %459
w: ||||||||||||||||
 z8 | z8 | z8 | z8 | z8 | z8 | z18 | z8 | z8 | z8 | z8 | z8 | z8 | z8 | z8 | z2 z2 z4 z8 z8 z4 z2 | %475
w: ||||||||||||||||
 z20 | z16 | z8 | z2 z2 z4 z8 z8 z4 | z2 z2 z4 z8 z8 | z20 | z8 | z18 | z8 | z8 | z8 | z8 | z8 | %488
w: |||||||||||||
 z8 | z8 | z2 z2 z4 z8 z4 | z8 | z8 | z8 | z8 | z8 | z8 | z8 | z20 | z28 | z16 | z8 | z22 | z20 | %504
w: ||||||||||||||||
 z32 | z2 z2 z4 z8 z8 z8 z4 z2 | z8 | z8 | z8 | z8 | z8 | z18 | z8 | z8 | z8 | z8 | z8 | %517
w: |||||||||||||
[M:2/2] z8 | z8 | z4 z2 e2 | B2 B2 z2 (dA) | c3 c B2 B2 | E2 E2 z4 | z4 z2 e2 | B2 B2 z2 d2 | %525
w: ||Not|this man but _|Ba- rab- bas, not|this man,|not|this man, not|
 G2 G2 z2 (GD) | F3 F E2 (eA) | (.c3 B A2) A2 | !fermata!^G8 || z8 | z2 z2 z4 z8 z8 | %531
w: this man but _|Ba- rab- bas, but _|Ba- * * rab-|bas!|||
 z2 z2 z4 z8 z8 z2 | z2 z2 z4 z8 z8 z8 z8 z8 z4 | z26 | z32 |"^XIV. Chorus" B2 (B2 c4) | B8- | B8 | %538
w: ||||Hail, hail, _|hail,|_|
 e2 ^cc (A2 d2) | B2 GG G2 z2 | (A2 B2) (c4- | c2 BA) B2 dd | (B2 G4) A2- | A2 ^G2 (A4- | %544
w: King of the Jews, _|King of the Jews,|Hail, _ hail|_ _ _ King of the|Jews, _ hail,|_ _ hail,|
 A2 B2) ^G4 | z2 !tenuto!e2 cc !tenuto!B2 | (!tenuto!G2 c2) B4 | A8 || z8 | z24 | z22 | z16 | z8 | %553
w: _ _ hail,|King of the Jews,|Hail, _ hail,|hail!||||||
 z12 | z24 | z16 | z26 | z8 | z2 z2 z4 z8 | z24 | z16 | z2 z2 z4 z8 z2 | z8 | z26 | z8 | z8 | z8 | %567
w: ||||||||||||||
 z8 | z8 | z8 | z8 | z2 z2 z4 z4 z2 | z24 | z16 | %574
w: |||||||
[M:3/4]"^XVI. Chorus""^Prestissimo"[Q:1/4=180] z4 (G2 | A3 G F2 | G3 F E2 | F3) F F2 | E4 (G2 | %579
w: Cru-|||* ci- fy|him, cru-|
 A3) G ^F2 | G4 (B2 | c3 B A2 | B3 A G2 | A3) A A2 | (^G3 A B2 | c3) c B2 | A3 B c2 | ^G6 || z6 | %589
w: * ci- fy|him, cru-|||* ci- fy,|cru- * *|* ci- fy,|cru- ci- fy|him.||
 z2 z2 z4 z8 z4 z2 | z6 | z6 | z6 | z6 | z6 | z6 | z6 | z6 | z24 | z20 | z22 | z6 | z6 | z22 | z6 | %605
w: ||||||||||||||||
 z6 | z6 | z6 | z6 |"^Instrument change" z6 ||"^XVIII. Chorus" z4 E2 EE | (E2 F2 E4) | %612
w: |||||'We have a|law, _ _|
 E2- EE FGFF | E2 G3 A F2 | (F2 E2) z4 | z8 | z4 EF(GE) | (F4 E2) (EF) | (G2 ^F2) z2 (CD) | %619
w: and _ ac- cor- ding to that|law he ought to|die _||and by that _|law _ he _|ought _ to _|
 (E2 D2) z4 | z8 | z8 | z2 z E EE(=F=G) | AAGG F2 E2 | DDEF G2 F2 | (E2 D2 C2) G2 | %626
w: die _|||be- cause he has _|claimed to be the Son of|God, to be the Son of|God, _ _ the|
 (F2 E2) (E3 D) | E8- | !fermata!E8 || z6 | z2 z2 z4 z8 z4 | z24 | z26 | z16 | z8 | z2 z2 z4 z8 | %636
w: Son _ of _|God.'|_||||||||
 z6 | z8 | z6 | z6 | z8 | z6 | z6 | z6 | z2 z2 z4 z8 z8 z2 | z20 | z6 | z6 | z22 | z32 | z26 | z6 | %652
w: ||||||||||||||||
 z6 | z6 | z6 | z6 | z6 | z16 | z6 | z6 | z6 | z6 | z6 | z6 | z6 | z6 | z24 | z32 | z32 | z24 | %670
w: ||||||||||||||||||
 z6 | z6 | z26 | z22 |[M:4/4]"^XX. Chorus" z8 | z8 | z8 | z8 | c2 AA B2 =G2 | d2 dd c2 cc | %680
w: ||||||||If you re- lease this|man, you are not, you are|
 B2 z e d2 d2 | c3 c A4 | G4 z2 GG | E2 G2 GGGG | AAAA (F4 | G8) | z8 | z4 z2 BB | B2 B2 cccc | %689
w: not, are not the|em- pe- ror's|friend. E- v'ry|one who claims to be a|king, to be a king|_||e- v'ry|one who claims to be a|
 (A4 B4) | B2 G2 E2 c2 | c2 B2 A3 A | G4 z2 AA | A2 A2 BBBB | G4 G3 G | E2 C2 c4 | z2 A2 F2 D2 | %697
w: king _|sets him- self a-|gainst the em- per-|or e- v'ry|one who claims to be a|king sets him-|self a- gainst,|a- gainst the|
 d3 c B2 A2 | (^G2 A4) G2 | !fermata!A8 || z8 | z2 z2 z4 z8 z2 | z2 z2 z4 z8 z4 | %703
w: em- pe- ror, the|em- * pe-|ror.||||
 z2 z2 z4 z8 z8 z8 z8 z2 | z40 | z20 | z20 | z8 | z8 | z8 | z30 | z8 | z8 | z8 | z8 | z8 | z20 | %717
w: ||||||||||||||
 z8 | z8 | z8 | z8 z8 |[M:3/4]"^XXII. Chorus" z6 | z6 | z6 | B2 e2 B2 | A2 A2 BB | ^c3 c d2 | %727
w: |||||||a- way with|him, cru- ci- fy,|cru- ci- fy,|
 d3 d ^c2 | d4 z2 | A2 d2 =c2 | B4 z2 | z6 | G2 d2 B2 | G2 E2 ^FF | ^G3 A B2 | c3 B ^G2 | A3 B c2 | %737
w: cru- ci- fy|him!|A- way with|him,||A- way with|him, cru- ci- fy,|cru- ci- fy,|cru- ci- fy|cru- ci- fy|
 B6 || z6 | z20 | z2 z2 z4 z8 z4 z2 | z6 | z6 | z6 | z6 || z6 | z2 z2 z4 z8 z8 z4 z2 | z6 | z6 | %749
w: him!||||||||||||
 z6 | z6 | z6 | z6 | z2 z2 z4 z4 z2 | z16 | z6 | z6 | z6 | z6 | z6 |[M:4/4]"^XXIV. Chorus" z8 | %761
w: ||||||||||||
 z4 B2 Bc | dcAB (c2 B2) | c4 B4 | (A4 G2) G2 | G4 z D FG | AGEF (G2 E2) | ^F2 G2 G3 F | G4 z4 | %769
w: We have no|king, we have no king _|but the|em- * pe-|ror, we have no|king, we have no king _|but the em- pe-|ror,|
 z B Bc (dc)(AB) | (cB)(GA) (B2 A2) | z A AB (cB)(GA) | (B2 G2) EE (^F2 | G2) z2 d4- | d4 c4 | %775
w: we have no king, _ no _|king, _ no _ king, _|we have no king, _ no _|king, _ have no king,|_ but|_ the|
 B4 B4 | ^c8 || z8 | z2 z2 z4 z8 z8 | z18 | z20 | z2 z2 z4 z8 z8 z2 | z2 z2 z4 z8 z8 z8 z2 | z28 | %784
w: em- pe-|ror.||||||||
 z32 | z2 z2 z4 z8 z8 z4 z2 | z22 | z2 z2 z4 z8 z8 z8 z4 z2 | z18 | z48 | z56 | z26 | %792
w: ||||||||
 z2 z2 z4 z8 z8 z8 z8 | z18 | z14 | z12 | z20 | z26 | z16 | z8 | z8 | z8 | %802
w: ||||||||||
[M:4/4]"^XXVI. Chorus" z2 eB cc BB/B/ | A2 eB cc AA/A/ | B2 dB e>e BB/B/ | c2 z2 z2 G2- | %806
w: 'Do not write, "The King of the|Jews", do not write, "The King of the|Jews", do not write, "The King of the|Jews", but|
 G2 GG (A2 B2 | c4 B4) | A8 | A4 A4 | A8 | B4 B4 | A4 z2 A2- | AA A2 A4 | (B2 c4) B2 | c4 z4 | %816
w: _ "This man said, _|_ _|"I|am the|King|of the|Jews", but|_ "this man said,|this _ man|said,|
 e2 BB cc/c/ d2 | e2 dd cc/c/ B2 | e2 dd cc/c/ B2 | z G BB c2 BB | E2 z B (cAB)B | c2 BB A^G c2 | %822
w: "I am the King of the Jews,|I am the King of the Jews,|I am hte King of the Jews,|I am the King of the|Jews, I am _ _ the|King of the Jews, of the|
 B8 || z8 | z18 | z8 | z8 | z8 | z8 | z8 | z8 | z8 | z18 | z20 | z8 | z8 | z8 | z8 | z8 | %839
w: Jews."'|||||||||||||||||
 z2 z2 z4 z8 | z24 | z18 | z28 | z2 z2 z4 z8 | z22 | z22 | z26 | z22 |[M:2/2]"^XXVIII. Chorus" z8 | %849
w: ||||||||||
 z8 | BA G2 d2 cB | (A2 B2 c4) | B2 dc B2 cB | (A2 B2) G2 A2 | B4 E4 | z8 | z8 | z4 z2 A2 | %858
w: |Let us not tear it, _|tear _ _|it, let us not, let us|not _ tear it,|tear it,|||to|
 c2 cG G4 | G8 | z2 G2 (FE F2) | (ED) E2 D4 | z8 | A2 z c e2 A2- | A2 =G2 c4 | B8 || z8 | z32 | %868
w: see who will get|it,|but cast _ _|lots _ for it,||see, to see who|_ will get|it.'|||
 z30 | z32 | z26 | z38 | z22 | z26 | z24 | z2 z2 z4 z8 z4 z2 | z24 | z20 | z2 z2 z4 z8 z4 z2 | z8 | %880
w: ||||||||||||
 z14 | z16 | z8 | z8 | z8 | z2 z2 z4 z8 z8 z2 | z8 | z8 | z8 | z26 | z8 | z8 | z8 | %893
w: |||||||||||||
 z2 z2 z4 z4 z2 | z32 | z36 | z24 | z12 | z8 | z26 | z2 z2 z4 z8 z4 | z8 | z8 | z8 | z8 | z28 | %906
w: |||||||||||||
 z2 z2 z4 z8 z8 z8 z8 z2 | z28 | z30 | z12 | z8 | z30 | z2 z2 z4 z8 z8 | z8 | z8 | z8 | %916
w: ||||||||||
 z8 z8 z8 z8 z8 z8 z8 | z32 |[M:4/4]"^XXX. Chorus" z8 | e2 e2 e4- | e4 B4 | d8- | d4 c4 | B8 | z8 | %925
w: |||Help us Christ,|_ the|Son|_ of|God,||
 B2 A2 B2 c2 | (d8 | c8) | B8- | B8 | z8 | z4 (A2 B2) | =c6 A2 | (A2 G2 F4) | E8 | z4 (G2 A2) | %936
w: through your bit- ter|tor-||ment,|_||that _|we your|ser- * *|vants|that _|
 (D2 E)E G4 | E4 z4 | F2 G2 A4 | ^G2 A4 G2 | A2 A2 A2 E2 | (=G2 F2) E2 E2 | D2 D2 z4 | %943
w: we _ your ser-|vants|may for ev-|er shun all|e- vil and be|fear- * ful- ly|mind- ful,|
 A2 A2 (B2 d2) | c2 ^c2 d2 d2 | z8 | (F2 G2 A2) B2 | (=c4 G4) | (G2 A2 B2) c2 | (d8 | c8- | %951
w: and be fear- *|ful- ly mind- ful,||of _ _ your|death _|and _ _ its|cause,|_|
 c4 B2 A2) | B4 B2 c2 | (d2 B2) c2 B.A | G8 | z4 =G2 A2 | B2 AA A3 ^G | A4 A2 B2 | %958
w: |* so though|weak _ as we may|be,|we will|bring you our hearts and|lives, so though|
 (c2 A2) A2 (G=F) | E2 z2 =c2 d2 | e2 d2 (d3 ^c) | d8 | A2 B2 c2 A2 | A2 GF E2 z2 | A2 B2 c2 e2 | %965
w: poor _ as we may|be we will|bring our sa- cri-|fice,|so though poor and|weak we may be,|we bring you our|
 (c3 B) A4 | !fermata!^G8 |] %967
w: lives _ and|hearts.|
V:2
 z8 | z8 | z8 | z4 A4 | e4 f4 | e2 (a4 g2) | (e2 f2) g2 c2 | (f4 e4) | c2 B2 (A2 e2) | (f2 g4) g2 | %10
w: |||The|Pas- sion|of our _|Lord _ Je- sus|Christ, _|of our Lord _|Je- * sus|
 g4 (g2 e2) | (g2 a2 gefd | e2 d2) z2 g2 | (^f2 g2 d2) e2 | (ed c2 decd | BcAB c4 | G4) z2 g2 | %17
w: Christ, as _|told, _ _ _ _ _|_ _ as|told, _ _ as|told _ _ _ _ _ _|_ _ _ _ _|* as|
 ^f2 ff gg/g/ g=f | (e2 g2- (g3 ^f)) | g4 z2 d2 | B2 BB ce/e/ ed | (c2 f2 e4) | d8 | z2 e2 d3 d | %24
w: told by the ho- ly e- van- ge-|list _ _ _|John, as|told by the ho- ly e- van- ge-|list _ _|John,|as told by|
 e4 z e ee | d2 =c2 B4 | ^c4 z2 a2 | ^f2 ff gg/g/ g=f | (e4 c4) | z2 d2 B2 BB | cc/c/ cB (A4 | %31
w: John, by the e-|van- ge- list|John, as|told by the ho- ly e- van- ge-|list, _|as told by the|ho- ly e- van- ge- list,|
 B4) z2 (G2 | e8-) | e8 | e8 || z8 | z12 | z2 z2 z4 z8 z8 z8 z4 | z24 | z24 | z2 z2 z4 z8 z8 z8 | %41
w: _ John,|_||John.|||||||
 z32 | z28 | z2 z2 z4 z8 z8 z8 z8 | z2 z2 z4 z8 z4 | z12 | z16 | z32 | z22 | z8 | z20 | z8 | z8 | %53
w: ||||||||||||
 z8 | z8 | z8 | z8 | z18 | z8 | z8 | z8 | z8 | z8 | z8 | z8 ||[M:3/4] e2 e2 f2 | e3 e A2 | %67
w: ||||||||||||Je- sus of|Na- za- reth,|
 g2 g2 z2 | d2 d2 z2 | g2 g2 z2 | z6 | g2 g2 z2 | f2 f2 e2 | d3 d d2 | e2 e2 g2 | f3 e e2 | %76
w: Je- sus,|Je- sus,|Je- sus,||Je- sus,|Je- sus of|Na- za- reth,|Je- sus of|Na- za- reth,|
 e2 e3 d | e6 || z6 | z18 | z6 | z6 | z6 | z6 | z6 | z6 | z6 | z6 | z6 | z6 | z14 | z6 | z6 | z6 | %94
w: of Na- za-|reth.|||||||||||||||||
 z6 | z6 | z6 | z6 | z6 | z6 | z6 | z6 | z20 | z16 | z18 | z14 | z28 | z20 | z6 | z20 | z6 | z6 | %112
w: ||||||||||||||||||
 z6 | z6 | z6 | z6 | z6 | z6 | z16 | z6 | z6 | z6 | z6 | z6 | z6 |[M:3/4] e2 e2 f2 | e3 e A2 | %127
w: |||||||||||||Je- sus of|Na- za- reth,|
 g2 g2 z2 | d2 d2 z2 | g2 g2 z2 | z6 | g2 g2 z2 | f2 f2 e2 | d3 d d2 | e2 e2 g2 | f3 e e2 | %136
w: Je- sus,|Je- sus,|Je- sus,||Je- sus,|Je- sus of|Na- za- reth,|Je- sus of|Na- za- reth,|
 e2 e3 d | e6 || z6 | z6 | z18 | z6 | z6 | z6 | z6 | z6 | z6 | z6 | z6 | z6 | z6 | z6 | z28 | z22 | %154
w: of Na- za-|reth.|||||||||||||||||
 z20 | z6 | z6 | z2 z2 z4 z8 z8 z4 z2 | z36 | z16 | z14 | z10 | z16 | z18 | z20 | z18 | z6 | z6 | %168
w: ||||||||||||||
 z6 | z6 | z6 | z6 | z26 | z20 | z24 | z6 | z24 | z18 | z2 z2 z4 z8 z8 z2 | z20 | z28 | z24 | z30 | %183
w: |||||||||||||||
 z36 | z2 z2 z4 z8 z8 z8 z8 | z2 z2 z4 z8 z8 z8 | z2 z2 z4 z8 z8 z8 z4 z2 | z30 | %188
w: |||||
 z2 z2 z4 z8 z8 z8 z8 | z2 z2 z4 z8 z8 z2 | z20 | z2 z2 z4 z8 z4 z2 | z6 | z40 | z6 | z14 | z6 | %197
w: |||||||||
 z6 | z6 | z6 | z6 | z6 | z6 | z6 | z6 | z2 z2 z4 z8 z8 z2 | z20 | z16 | z36 | z38 | %210
w: |||||||||||||
 z2 z2 z4 z8 z8 z8 z4 | z18 | z2 z2 z4 z8 z4 | z6 | z6 | z6 | z6 | z6 | z6 | z6 | z6 | z6 | z6 | %223
w: |||||||||||||
 z6 | z6 | z6 | z34 | z30 | z16 | z24 | z26 | z18 | z24 | z24 | z20 | z22 | z6 | z6 | z6 | z6 | %240
w: |||||||||||||||||
 z6 | z16 | z36 | z14 | z6 | z34 | z6 | z6 | z6 | z6 | z6 | z6 | z6 | z14 | z6 | z6 | z6 | z6 | %258
w: ||||||||||||||||||
 z6 | z6 | z6 | z6 | z24 | z28 | z24 | z2 z2 z4 z8 z2 | z6 | z6 | z6 | z22 | z24 | %271
w: |||||||||||||
 z2 z2 z4 z8 z8 z8 z8 | z18 | z8 | A2 a2 ^f2 ff | g6 g2 | e4 ^f4 | z2 dd B2 e2 | e8 | e8 || z6 | %281
w: |||Are you not one of|his di-|sci- ples,|one of his di-|sci-|ples?||
 z28 | z6 | z6 | z6 | z6 | z6 | z16 | z6 | z6 | z6 | z6 | z6 | z6 | z6 | z6 | z6 | z6 | z6 | z6 | %300
w: |||||||||||||||||||
 z6 | z2 z2 z4 z8 z8 | z22 | z30 | z6 | z6 | z6 | z6 | z6 | z6 | z6 | z30 | z6 | z6 | z6 | z6 | %316
w: ||||||||||||||||
 z24 | z26 | z2 z2 z4 z8 z8 z8 z4 | z16 | z2 z2 z4 z8 z8 z4 z2 | z28 | z30 | z2 z2 z4 z8 z4 | z12 | %325
w: |||||||||
 z6 | z24 | z2 z2 z4 z8 | z6 | z6 | z16 | z6 | z6 | z6 | z6 | z6 | z8 | z8 | e2 d2 e2 f2 | %339
w: |||||||||||||If this man were|
 g2 z g g2 e2 | g6 g2 | e4 z2 ee | cccc f2 z f | eeee a2 ef | g2 gg c2 | (ee ag f3 e) | %346
w: not, were not a|cri- mi-|nal we would|not have han- ded him, would|not have han- ded him o- ver,|o- ver to you,|o- ver, o- * * *|
 d2 B2 c2 z e | cccc f2 z f | dddd g2 z g | eeee a4 | ge (g3 f e2- | ed c3 B A2- | AB/c/) d2 c4 | %353
w: ver to you, would|not have han- ded him, would|not have han- ded him, would|not have han- ded him|ov- er, o- * *||* * * ver to|
 B8 || z6 | z22 | z6 | z6 | z6 | z6 | z6 | z6 | z6 | z18 | z14 | z20 | z6 | z6 | z6 | z6 | z6 | %371
w: you.||||||||||||||||||
 z22 | z6 | z6 | z6 | z6 | z6 | z6 |[M:2/2] z4 e2 e2 | a2 e2 f2 ^cc | (d2 e3) A a2- | %381
w: |||||||We are|not per- mit- ted to|put _ to death,|
 a2 ^g2 z2 e2 | (d2 e2) f2 f2 | e4 B2 e2- | e4 e2 e2 | e8 || z8 | z28 | z2 z2 z4 z8 z8 z8 z4 z2 | %389
w: _ _ we|are _ not per-|mit- ted to|_ put to|death.||||
 z30 | z14 | z18 | z8 | z2 z2 z4 z8 z8 z2 | z8 | z8 | z8 | z8 | z8 | z2 z2 z4 z8 z2 | z8 | z8 | %402
w: |||||||||||||
 z8 | z8 | z8 | z8 | z8 | z8 | z22 | z2 z2 z4 z8 z8 z4 z2 | z8 | z16 | z8 | z8 | z8 | z8 | z8 | %417
w: |||||||||||||||
 z8 | z2 z2 z4 z8 z4 | z2 z2 z4 z8 z8 z8 z8 z4 | z2 z2 z4 z8 | z8 | z8 | z8 | z8 | z8 | z8 | z8 | %428
w: |||||||||||
 z8 | z8 | z8 | z8 | z2 z2 z4 z8 z4 | z8 | z8 | z8 | z8 | z8 | z8 | z8 | z28 | z24 | %442
w: ||||||||||||||
 z2 z2 z4 z8 z8 z8 z8 z8 z4 z2 | z14 | z22 | z8 | z8 | z8 | z8 | z8 | z18 | z2 z2 z4 z4 z2 | z8 | %453
w: |||||||||||
 z8 | z8 | z8 | z8 | z22 | z8 | z8 | z8 | z8 | z8 | z8 | z8 | z18 | z8 | z8 | z8 | z8 | z8 | z8 | %472
w: |||||||||||||||||||
 z8 | z8 | z2 z2 z4 z8 z8 z4 z2 | z2 z2 z2 z2 z8 z4 | z2 z2 z4 z8 | z8 | z2 z2 z4 z8 z8 z4 | %479
w: |||||||
 z2 z2 z4 z8 z8 | z20 | z8 | z18 | z8 | z8 | z8 | z8 | z8 | z8 | z8 | z2 z2 z4 z8 z4 | z8 | z8 | %493
w: ||||||||||||||
 z8 | z8 | z8 | z8 | z8 | z20 | z28 | z16 | z8 | z22 | z20 | z32 | z2 z2 z4 z8 z8 z8 z4 z2 | z8 | %507
w: ||||||||||||||
 z8 | z8 | z8 | z8 | z18 | z8 | z8 | z8 | z8 | z8 |[M:2/2] z8 | z8 | z2 a2 e2 e2 | z2 (gd) f3 f | %521
w: ||||||||||||Not this man,|but _ Ba- rab-|
 e4 g3 g | g2 e3 e d2 | c3 c B4 | z2 g2 d2 d2 | z2 (ec) d>d d2 | z2 (fd) e>e e2 | (eA) e4 e2 | %528
w: bas, Ba- rab-|bas, Ba- rab- bas,|Ba- rab- bas!|Not this man|but _ Ba- rab- bas,|but _ Ba- rab- bas,|but _ Ba- rab-|
 e8 || z8 | z2 z2 z4 z8 z8 | z2 z2 z4 z8 z8 z2 | z2 z2 z4 z8 z8 z8 z8 z8 z4 | z26 | z32 | z8 | %536
w: bas!||||||||
 e2 (e2 f4) | e8 | z2 a2 ^ff d2 | z2 g2 ee c2 | (f2 g2) (g3 ^f) | g8 | z2 g2 ee c2 | %543
w: Hail, hail, _|hail|King of the Jews|King of the Jews|hail, _ hail, _|hail;|King of the Jews|
 (d2 e2) (e3 d) | e4 e2 ^gg | a2 z2 e2 e2 | e8 | e8 || z8 | z24 | z22 | z16 | z8 | z2 z2 z4 z4 | %554
w: hail, _ hail; _|_ King of the|Jews, hail, hail,|hail,|hail!|||||||
 z2 z2 z4 z8 z8 | z2 z2 z4 z8 | z26 | z8 | z2 z2 z4 z8 | z24 | z16 | z2 z2 z4 z8 z2 | z8 | z26 | %564
w: ||||||||||
 z8 | z8 | z8 | z8 | z8 | z8 | z8 | z2 z2 z4 z4 z2 | z24 | z16 |[M:3/4] (c2 g2 e2 | c2 d3 c | %576
w: ||||||||||Cru- * *||
 B2 c3 B | A3) A B2 | c2 (e3 d | c3) B A2 | d2 (d2 g2 | e2 f3 e | d2 e3 d | c3) c d2 | e3 e B2 | %585
w: |* ci- fy|him, cru- *|* ci- fy|him, cru- *|||* ci- fy,|cru- ci- fy,|
 e3 ^f ^g2 | e3 e e2 | !fermata!e6 || z6 | z2 z2 z4 z8 z4 z2 | z6 | z6 | z6 | z6 | z6 | z6 | z6 | %597
w: cru- ci- fy,|cru- ci- fy|him.||||||||||
 z6 | z24 | z20 | z22 | z6 | z6 | z22 | z6 | z6 | z6 | z6 | z6 |"^Instrument change" z6 || %610
w: |||||||||||||
 B,,2 B,,B,, (B,,2 C,2 | B,,6) B,,B,, | B,,A,,B,,C, D,4 | (C,2 E,G,) C,3 B,, | C,4 z E,E,E, | %615
w: 'We have a law, _|_ and ac-|cor- ding to that law|he _ _ ought to|die We have a|
 (E,2 F,2 E,4- | E,2) E,2 (=C,D,)(E,C,) | (A,,2 B,,2 C,2) z A,, | (B,,2 D,B,, G,,3) ^F,, | %619
w: law, _ _|_ and by _ that _|law _ _ he|ought _ _ _ to|
 G,,3 G,, D,,D,,(E,,=F,,) | G,,2 F,,2 E,,G,,(A,,B,,) | C,2 B,,2 A,,2 C,2 | B,,3 B,, A,,4 | %623
w: die be- cause he has _|claimed, be- cause he has _|claimed to be the|Son of God,|
 z A,, B,,C, D,2 C,2 | B,,2 A,,2 G,,G,,A,,B,, | C,2 D,2 E,2 E,2 | D,2 z G,, A,,2 B,,2 | %627
w: to be the Son, the|Son of God, to be the|Son, the Son of|God, to be the|
 (C,2 B,,A,, B,,2) B,,2 | !fermata!A,,8 || z6 | z2 z2 z4 z8 z4 | z24 | z26 | z16 | z8 | %635
w: Son _ _ _ of|God.'|||||||
 z2 z2 z4 z8 | z6 | z8 | z6 | z6 | z8 | z6 | z6 | z6 | z2 z2 z4 z8 z8 z2 | z20 | z6 | z6 | z22 | %649
w: ||||||||||||||
 z32 | z26 | z6 | z6 | z6 | z6 | z6 | z6 | z16 | z6 | z6 | z6 | z6 | z6 | z6 | z6 | z6 | z24 | %667
w: ||||||||||||||||||
 z32 | z32 | z24 | z6 | z6 | z26 | z22 |[M:4/4]"^Alto" C,,2 A,,,A,,, E,,2 C,,2 | %675
w: |||||||If you re- lease this|
 G,,2 G,,G,, F,,2 F,,F,, | E,,2 z E,, D,,2 D,,2 | C,,3 C,, B,,,4 | A,,,4 D,,2 E,,E,, | %679
w: man, you are not, you are|not, are not the|em- pe- ror's|friend, if you re-|
 D,,2 G,,2 (E,,3 =F,, | G,,4) z4 | z2 G,,G,, F,,2 F,,2 | E,,3 E,, D,,4 | (C,,3 D,,) E,,4 | z8 | %685
w: lease this man, _|_|you are not the|em- pe- ror's|friend; _ _||
 z4 G,,2 E,,2 | E,,2 E,,2 ^F,,2 G,,2 | G,,3 ^F,, G,,4 | z2 E,,E,, E,,2 E,,2 | =F,,F,,F,,F,, D,,4 | %690
w: sets him-|self a- gainst the|em- pe- ror|e- v'ry one who|claims to be a king|
 E,,3 E,, G,,2 E,,2 | ^F,,2 G,,2 G,,3 F,, | G,,2 z2 E,,E,,E,,E,, | F,,F,,F,,F,, (D,,4 | %694
w: sets him- self a-|gainst the em- per-|or e- v'ry one who|claims to be a king|
 E,,4) z2 (E,,2 | G,,2) E,,2 A,,2 E,,2 | F,,8- | F,,4 F,,4 | E,,4 E,,4 | !fermata!E,,8 || z8 | %701
w: _ sets|_ him- self a-|gainst|_ the|em- pe-|ror.||
 z2 z2 z4 z8 z2 | z2 z2 z4 z8 z4 | z2 z2 z4 z8 z8 z8 z8 z2 | z40 | z20 | z20 | z8 | z8 | z8 | z30 | %711
w: ||||||||||
 z8 | z8 | z8 | z8 | z8 | z20 | z8 | z8 | z8 | z16 |[M:3/4] z6 | z6 | B,,,2 E,,2 C,,2 | B,,,4 z2 | %725
w: ||||||||||||A- way with|him,|
 E,,2 A,,2 F,,2 | E,,2 E,,2 F,,F,, | G,,3 F,, E,,2 | ^F,,3 F,, G,,2 | D,,4 z2 | G,,,2 D,,2 B,,,2 | %731
w: a- way with|him, cru- ci- fy,|cru- ci- fy,|cru- ci- fy|him!|A- way with|
 A,,,2 A,,,2 A,,,A,,, | D,,4 z2 | E,,3 D,, C,,2 | E,,3 E,, ^F,,2 | =G,,3 =F,, E,,2 | %736
w: him, cru- ci- fy|him,|cru- ci- fy,|cru- ci- fy,|cru- ci- fy,|
 E,,3 E,, (E,,^F,,) | ^G,,6 || z6 | z20 | z2 z2 z4 z8 z4 z2 | z6 | z6 | z6 | z6 || z6 | %746
w: cru- ci- fy _|him!|||||||||
 z2 z2 z4 z8 z8 z4 z2 | z6 | z6 | z6 | z6 | z6 | z6 | z2 z2 z4 z4 z2 | z16 | z6 | z6 | z6 | z6 | %759
w: |||||||||||||
 z6 |[M:4/4] z8 | z8 | z8 | E,,2 E,,=F,, =G,,F,,D,,E,, | F,,E,,C,,D,, (E,,2 C,,2) | E,,4 D,,4 | %766
w: ||||We have no king, we have no|king, we have no king _|but the|
 (C,,4 B,,,2 A,,,2- | A,,,2 G,,,2 D,,2) D,,2 | D,,D,,E,,^F,, G,,2 E,,2 | %769
w: em- * *|* * * pe-|ror, we have no king, no|
 D,,2 D,,2 (!courtesy!=F,,E,,)(C,,D,,) | (E,,D,,)(B,,,C,,) D,,4 | D,,4 C,,4 | B,,,2 B,,,2 A,,,4 | %773
w: king, no king, _ no _|king, _ no _ king|but the|em- pe- ror,|
 z D,, D,,E,, =F,,E,, D,,>C,, | (E,,2 B,,,2) z2 E,,2- | E,,2 E,,2 E,,3 E,, | E,,8 || z8 | %778
w: we have no king, no king, no|king _ but|_ the em- pe-|ror.||
 z2 z2 z4 z8 z8 | z18 | z20 | z2 z2 z4 z8 z8 z2 | z2 z2 z4 z8 z8 z8 z2 | z28 | z32 | %785
w: |||||||
 z2 z2 z4 z8 z8 z4 z2 | z22 | z2 z2 z4 z8 z8 z8 z4 z2 | z18 | z48 | z56 | z26 | %792
w: |||||||
 z2 z2 z4 z8 z8 z8 z8 | z18 | z14 | z12 | z20 | z26 | z16 | z8 | z8 | z8 | %802
w: ||||||||||
[M:4/4] z2 E,,^G,, A,,A,, G,,E,,/E,,/ | E,,2 E,,^G,, A,,A,, ^F,,F,,/F,,/ | %804
w: 'Do not write, "The King of the|Jews", do not write, "The King of the|
 =G,,2 G,,G,, E,,>E,, G,,G,,/G,,/ | G,,2 z2 B,,,2 E,,E,, | E,,4 ^F,,2 (G,,2- | G,,2 ^F,,2) G,,4 | %808
w: Jews', do not write, "The King of the|Jews", but, "This man|said, this man|_ _ said,|
 z !courtesy!=F,, ^C,,C,, D,,D,,/D,,/ A,,,2 | F,,2 E,,E,, D,,D,,/D,,/ ^C,,C,, | %810
w: "I am the King of the Jews,|I am the King of the Jews, the|
 F,,2 E,,E,, (F,,2 =C,,)C,, | E,,2 F,,2 E,,4 | E,,4 z4 | z2 C,,4 C,,2 | (D,,2 E,,2) F,,2 F,,2 | %815
w: King of the Jews, _ the|King of the|Jews",|but 'this|man, _ this man|
 E,,4 G,,4 | G,,4 G,,4 | G,,4 G,,4 | G,,8 | !tenuto!E,,8- | E,,8- | E,,8- | E,,8 || z8 | z18 | z8 | %826
w: said, "I|am the|King of|the|Jews"'.|_||||||
 z8 | z8 | z8 | z8 | z8 | z8 | z18 | z20 | z8 | z8 | z8 | z8 | z8 | z2 z2 z4 z8 | z24 | z18 | z28 | %843
w: |||||||||||||||||
 z2 z2 z4 z8 | z22 | z22 | z26 | z22 |[M:2/2] z8 | z4 E,,D,, C,,2 | G,,2 (F,,E,,) (D,,3 E,, | %851
w: ||||||Let us not|tear it, _ tear _|
 ^F,,2 G,,4 F,,2) | G,,2 B,,,C,, D,,2 E,,D,, | (C,,2 D,,2) B,,,2 C,,2 | D,,4 ^C,,4 | %855
w: _ _ _|it, let us not, let us|not _ tear it,|tear it,|
 E,,6 (D,,=C,,) | D,,2 C,,B,,, (C,,2 B,,,2) | z4 E,,2 F,,2- | F,,2 G,,G,, D,,4 | E,,4 E,,2 D,,C,, | %860
w: but cast _|lots for _ it, _|to see|_ who will get|it, but cast _|
 D,,2 (C,,B,,,) C,,2 (B,,,A,,,) | (B,,,2 C,,4) B,,,2 | C,,2 z E,, G,,2 z D,, | %863
w: lots for _ it, cast _|lots _ for|it to see, to|
 (F,,2 A,,2) A,,,2 C,,2 | E,,8 | E,,8 || z8 | z32 | z30 | z32 | z26 | z38 | z22 | z26 | z24 | %875
w: see _ who will|get|it.'||||||||||
 z2 z2 z4 z8 z4 z2 | z24 | z20 | z2 z2 z4 z8 z4 z2 | z8 | z14 | z16 | z8 | z8 | z8 | %885
w: ||||||||||
 z2 z2 z4 z8 z8 z2 | z8 | z8 | z8 | z26 | z8 | z8 | z8 | z2 z2 z4 z4 z2 | z32 | z36 | z24 | z12 | %898
w: |||||||||||||
 z8 | z26 | z2 z2 z4 z8 z4 | z8 | z8 | z8 | z8 | z28 | z2 z2 z4 z8 z8 z8 z8 z2 | z28 | z30 | z12 | %910
w: ||||||||||||
 z8 | z30 | z2 z2 z4 z8 z8 | z8 | z8 | z8 | z8 z8 z8 z8 z8 z8 z8 | z32 |[M:4/4] E,,2 E,,2 E,,4- | %919
w: ||||||||Help us Christ,|
 E,,4 A,,,4 | G,,,2 G,,,2 D,,4- | D,,4 D,,4 | B,,,4 E,,4 | E,,8 | E,,2 D,,2 E,,2 F,,2 | %925
w: _ O|help us Christ,|_ the|Son of|God,|through your bit- ter|
 (=G,,6 F,,E,,) | F,,8 | E,,2 D,,2 E,,2 ^F,,2 | (G,,8- | G,,4 ^F,,2 E,,2 | ^F,,4) E,,4 | z8 | %932
w: tor- * *|ment,|through your bit- ter|tor-||* ment,||
 (=C,,2 D,,2) E,,2 C,,2 | (F,,2 E,,4 D,,2) | E,,4 (E,,2 F,,2) | G,,2 E,,2 (E,,2 D,,C,, | %936
w: that _ we your|ser- * *|vants, that _|we your ser- * *|
 G,,4 D,,4) | G,,2 F,,2 E,,4 | D,,4 C,,2 D,,2 | E,,2 E,,2 E,,2 E,,2 | E,,2 E,,2 C,,2 A,,,A,,, | %941
w: * vants|may for ev-|er, may for|e- ver shun all|e- vil, and of your|
 (B,,,2 D,,2) D,,2 ^C,,2 | D,,4 A,,2 E,,E,, | ^F,,4 G,,2 =F,,2 | (E,,4 D,,4) | z8 | %946
w: death _ and its|cause, and of your|death and its|cause _||
 (D,,2 E,,2) F,,2 G,,G,, | A,,4 E,,4 | (E,,2 F,,2) G,,2 E,,E,, | (F,,8 | E,,6 F,,2 | G,,8) | %952
w: be _ fear- ful- ly|mind- ful,|be _ fear- ful- ly|mind-|||
 G,,8- | G,,4 E,,2 F,,2 | (G,,2 E,,2) E,,2 D,,C,, | B,,,2 z2 E,,2 D,,2 | B,,,2 E,,E,, E,,3 E,, | %957
w: ful,|_ so though|weak _ as we may|be, we will|bring you our hearts and|
 E,,4 F,,2 G,,2 | (A,,2 F,,2) F,,2 (E,,D,,) | ^C,,2 z2 E,,2 D,,2 | A,,,2 F,,2 E,,3 E,, | D,,8 | %962
w: lives, so though|poor _ as we may|be we will|bring our sa- cri-|fice,|
 F,,2 G,,2 A,,2 E,,2 | (E,,F,,) D,,2 C,,2 z2 | C,,2 D,,2 E,,2 E,,2 | E,,4 E,,4 | !fermata!E,,8 |] %967
w: so though poor and|weak * we may|we bring you our|lives and|hearts.|
V:3
 (E4 B4) | c4 B2 e2- | e2 d2 (c4- | c2 B2) c2 d2 | B2 e4 =d2 | e8 | z4 z2 A2- | A2 B2 (c2 d2) | %8
w: The _|Pas- sion of|_ our Lord|_ _ Je- sus|Christ, Je- sus|Christ,|of|_ our Lord _|
 (e3 d/e/ f2) c2 | (d2 e2 d2) d2 | c4 z2 c2- | c2 A2 (c2 d2 | cA=BG A2 G2 | d4) B2 c2- | %14
w: Je- * * * sus,|Je- * * sus|Christ, as|_ _ told, _|_ _ _ _ _ _|* as told|
 (cB A2 BcAB | c2 F2) G2 z c | B2 BB c2 cB | A2 A2 G4 | z2 (G2 d4 | G2) (B2 A4) | G4 z c cB | %21
w: _ _ _ _ _ _ _|* * * as|told by the ho- ly e-|van- gel- ist|John, _|_ John, _|John, by the e-|
 A2 d2 (d3 ^c) | d2 d2 B2 BB/B/ | =cc (cB) A4 | (B4 E)E EE | A2 A2 (A3 ^G) | A8 | z2 d2 B2 BB | %28
w: van- ge- list _|John, as told by the e-|van- ge- list _ _|John, _ by the e-|van- ge- list _|John,|as told by the|
 =cc/c/ cB A4 | z2 B2 G2 GG | AA/A/ AG F4 | z G/G/ GF E4 | z2 E2 (c3 B | A3) (B c4) | B8 || %35
w: ho- ly e- van- ge- list|as told by the|ho- ly e- van- ge- list,|the e- van- ge- list,|as told _|_ by _|John.|
"^I. Recitative" z8 |"^Instrument change" (E,2 B,2) B,8 | %37
w: |Je- * sus|
 (G,2 A,2) B,2 B,2 B,2 A,2 B,2 B,2 B,2 C2 B,2 A,2 A,2 B,2 G,8 | %38
w: went * out with his dis- ci- ples a- cross the Kid- ron val- ley|
 G,2 F,2 G,2 G,2 G,2 G,2 E,2 G,2 G,8 | G,2 A,2 A,2 E,2 G,2 G,2 E,2 F,2 E,8 | %40
w: to a place where ther was a gar- den,|which he and his di- ci- ples en- tered.|
 F,2 F,2 F,2 F,2 F,2 F,2 A,2 A,2 F,2 D,2 E,2 F,2 G,8 | %41
w: Now Ju- das, who had be- trayed him, al- so knew the place,|
 G,2 G,2 G,2 E,2 E,2 G,2 G,2 G,2 C2 B,2 A,2 B,2 A,8 | E,2 A,2 A,2 C2 A,2 A,2 A,2 A,2 G,2 A,2 E,8 | %43
w: be- cause Je- sus of- ten met there with his dis- ci- ples.|So Ju- das brought a de- tatch- ment of sol- diers|
 A,2 C2 C2 C2 A,2 C2 C2 C2 A,2 C2 A,2 A,2 (C2 B,2) A,2 (A,2 B,8) | E,2 G,2 A,2 B,2 G,2 B,2 E,8 | %45
w: to- geth- er with po- lice from the chief priests and the pha- * ri- sees, _|and they came there with lan- terns|
 B,2 B,2 E,8 | G,2 (A,2 B,2) A,2 G,8 | A,2 C2 C2 A,2 C2 A,2 F,2 G,2 A,2 F,2 E,2 F,2 E,8 | %48
w: and tor- ches|and with _ wea- pons.|Then Je- sus, know- ing all that was to hap- pen to him,|
 G,2 C2 C2 A,2 (B,2 C2) (A,2 G,8) |"^Instrument change" z8 | %50
w: came for- ward and asked _ them, _||
"^Instrument change" G,2 (F,2 E,2) C,2 D,2 E,2 E,8 |"^Instrument change" z8 | z8 | z8 | z8 | z8 | %56
w: For whom _ are you look- ing?||||||
 z8 |"^Instrument change" B,2 (C2 A,2) (G,2 A,2) B,8 |"^Instrument change" z8 | z8 | z8 | z8 | z8 | %63
w: |They answ- * ered _ him,||||||
 z8 | z8 ||[M:3/4]"^Instrument change" z6 | z6 | z6 | B,2 B,2 C2 | B,3 B, E,2 | D2 D2 z2 | %71
w: |||||Je- sus of|Na- za- reth,|Je- sus,|
 E2 E2 z2 | D2 D2 C2 | C4 B,2 | C4 z2 | z2 E2 A,2 | B,2 C2 (B,A,) | B,6 ||"^III. Recitative" z6 | %79
w: Je- sus,|Je- sus, of|Na- za-|reth,|Je- sus|of Na- za- *|reth.||
"^Instrument change" B,2 G,2 C2 (B,2 A,2 G,8) |"^Instrument change" z6 | z6 | z6 | z6 | z6 | z6 | %86
w: Je- sus re- plied _ _|||||||
 z6 | z6 | z6 | z6 |"^Instrument change" G,2 E,2 (F,2 G,8) |"^Instrument change" z6 | z6 | z6 | %94
w: ||||I am he. _||||
 z6 | z6 | z6 | z6 | z6 | z6 | z6 | z6 |"^Instrument change" A,2 A,2 A,2 A,2 (A,2 G,2) A,8 | %103
w: ||||||||Ju- das, who be- trayed _ him,|
 A,2 C2 A,2 G,2 E,8 | E,2 B,2 B,2 B,2 A,2 B,8 | (C2 B,2) A,2 B,8 | %106
w: was stan- ding with them.|When Je- sus said to them,|'I _ am he,'|
 G,2 (G,2 F,2 G,2) E,2 E,2 (A,2 G,2) E,2 F,2 E,8 | E,2 A,2 A,2 (G,2 A,2 B,2) A,8 | %108
w: they stepped _ _ back and fell _ to the ground.|A- gain he asked _ _ them,|
"^Instrument change" z6 |"^Instrument change" G,2 (F,2 E,2) C,2 D,2 E,2 E,8 | %110
w: |For whom _ are you look- ing?|
"^Instrument change" z6 | z6 | z6 | z6 | z6 | z6 | z6 | x6 | %118
w: ||||||||
"^Instrument change" G,2 (A,2 B,2 C2) B,8 |"^Instrument change" z6 | z6 | z6 | z6 | z6 | z6 | %125
w: And they _ _ said,|||||||
[M:3/4]"^Instrument change" z6 | z6 | z6 | B,2 B,2 C2 | B,3 B, E,2 | D2 D2 z2 | E2 E2 z2 | %132
w: |||Je- sus of|Na- za- reth,|Je- sus,|Je- sus,|
 D2 D2 C2 | C4 B,2 | C4 z2 | z2 E2 A,2 | B,2 C2 (B,A,) | B,6 ||"^V. Recitative" z6 | z6 | %140
w: Je- sus, of|Na- za-|reth,|Je- sus|of Na- za- *|reth.|||
"^Instrument change" B,2 G,2 C2 (B,2 A,2 G,8) |"^Instrument change" z6 | z6 | z6 | z6 | z6 | z6 | %147
w: Je- sus re- plied _ _|||||||
 z6 | z6 | z6 | z6 | z6 |"^Instrument change" G,2 G,2 G,2 G,2 (E,2 A,2) (G,2 F,2) (F,2 G,2 E,8) | %153
w: |||||I told you that I _ am _ he. _ _|
 F,2 F,2 F,2 (F,2 E,2) F,2 G,2 A,8 | G,2 (G,2 A,2) (B,2 A,2) (A,2 G,8) |"^Instrument change" z6 | %156
w: If you are look- * ing for me,|let these _ men _ go. _||
 z6 |"^Instrument change" G,2 A,2 B,2 C2 C2 B,2 A,2 A,2 B,2 C2 B,2 B,8 | %158
w: |This was to ful- fil the word that he had spo- ken,|
 A,2 C2 C2 C2 C2 A,2 B,2 C2 B,2 C2 D2 (A,2 C2) B,2 A,8 | E,2 A,2 A,2 C2 A,8 | C2 F,2 G,2 A,8 | %161
w: 'I did not lose a sin- gle one of those whom you _ gave me.'|Then Si- mon Pe- ter,|who had a sword,|
 C2 A,8 | C2 C2 D2 A,2 C8 | C2 A,2 B,2 C2 D2 G,8 | G,2 G,2 A,2 E,2 (G,2 F,2) E,8 | %165
w: drew it,|struck the High Priest's slave,|and cut off his right ear.|The slave's name was Mal- * chus.|
 C2 B,2 A,2 C2 A,2 G,8 |"^Instrument change" z6 | z6 | z6 | z6 | z6 | z6 | %172
w: Je- sus said to Pe- ter,|||||||
"^Instrument change" G,2 E,2 (F,2 G,2) A,2 A,2 A,2 (G,2 F,2) E,8 | C,2 E,2 F,2 G,2 E,2 A,2 G,8 | %174
w: Put your sword _ back in- to it's sheath. _|Am I not to drink the cup|
 G,2 A,2 F,2 E,2 C,2 (D,2 E,2) E,2 E,8 |"^Instrument change" z6 | %176
w: that the Fa- ther has gi- * ven me?||
"^Instrument change" E,2 B,2 B,2 B,2 C2 B,2 B,2 A,2 B,8 | G,2 A,2 B,2 A,2 A,2 B,8 | %178
w: So the sol- diers and their of- fi- cer,|and the Jew- ish po- lice|
 B,2 B,2 B,2 C2 A,2 (C2 B,2) (A,2 B,2) B,8 | A,2 C2 C2 A,2 B,2 C2 A,8 | %180
w: ar- res- ted Je- sus and _ bound _ him.|First they took him to An- nas,|
 C2 C2 C2 C2 B,2 A,2 A,2 B,2 A,2 B,2 B,8 | B,2 (C2 D2 E2) (E2 D2) (D2 C2) C8 | %182
w: who was the fa- ther- in- law of Ci- a- phas,|the high _ _ priest _ that _ year.|
 E,2 G,2 G,2 G,2 G,2 G,2 G,2 G,2 G,2 G,2 E,2 G,8 | %183
w: Cai- a- phas was the one who had ad- vised the Jews|
 E,2 G,2 G,2 G,2 A,2 A,2 C2 A,2 G,2 A,2 F,2 A,2 A,2 A,2 F,8 | %184
w: that it was bet- ter to have one per- son die for the peo- ple.|
 A,2 C2 C2 G,2 A,2 A,2 A,2 G,2 F,2 (F,2 G,2) A,2 A,2 (A,2 G,2) A,2 F,8 | %185
w: Si- mon Pe- ter and a- no- ther di- sci- * ple fol- lowed _ Je- sus.|
 F,2 F,2 G,2 A,2 A,2 A,2 A,2 A,2 A,2 (C2 A,2 G,2) A,8 | %186
w: Since that di- sci- ple was known to the high _ _ priest,|
 G,2 A,2 B,2 (A,2 C2) C2 C2 C2 C2 D2 C2 C2 C2 (B,2 A,2) C8 | %187
w: he went with Je- * sus in- to the court- yard of the high _ priest,|
 B,2 C2 G,2 G,2 G,2 G,2 A,2 B,2 (E,2 G,2) F,2 E,8 | %188
w: but Pe- ter was stan- ding out- side at _ the gate.|
 E,2 A,2 A,2 A,2 A,2 A,2 A,2 A,2 A,2 C2 C2 A,2 (G,2 A,2) C2 A,2 C8 | %189
w: So the oth- er di- sci- ple, who was known to the high _ priest, went out,|
 A,2 C2 C2 C2 B,2 A,2 A,2 B,2 B,2 B,8 | G,2 (A,2 B,2) B,2 (B,2 A,2) B,8 | %191
w: spoke to the wo- man who guar- ded the gate,|and brought _ Pe- ter _ in.|
 G,2 C2 C2 C2 C2 (C2 A,2) G,8 |"^Instrument change" z6 | %193
w: The wo- man said to Pe- * ter,||
"^Instrument change" E2 G2 (A2 B2) B2 B2 B2 B2 (B2 G2) A2 c2 B2 B2 (B2 A2)[K:treble] B,8 | %194
w: You are not _ al- so one of this _ man's di- sci- ples are _ you?|
"^Instrument change" z6 |"^Instrument change" A,,2 (C,2 D,2) E,8 |"^Instrument change" z6 | z6 | %198
w: |'I am _ not.'|||
 z6 | z6 | z6 | z6 | z6 | z6 | z6 | %205
w: |||||||
"^Instrument change" E,,2 A,,2 (C,2 A,,2) A,,2 A,,2 A,,2 (A,,2 G,,2 E,,8) | %206
w: Now the slaves _ and the po- lice _ _|
 A,,2 A,,2 A,,2 (A,,2 C,2) A,,2 C,8 | A,,2 G,,2 G,,2 A,,2 B,,8 | %208
w: had made a char- * coal fire,|be- cause it was cold,|
 B,,2 B,,2 B,,2 (E,,2 G,,2) F,,2 E,,2 E,,2 E,,2 B,,2 (B,,2 G,,2) G,,2 F,,2 G,,8 | %209
w: and they were stan- * ding a- round it and war- * ming them- selves.|
 A,,2 A,,2 A,,2 B,,2 A,,2 A,,2 G,,2 A,,2 E,,2 G,,2 (G,,2 A,,2) G,,2 F,,2 (F,,2 E,,8) | %210
w: Pe- ter was al- so stan- ding with them and warm- * ing him- self. _|
 B,,2 B,,2 (A,,2 B,,2) G,,2 G,,2 A,,2 B,,2 B,,2 B,,2 B,,2 B,,2 A,,2 B,,2 B,,8 | %211
w: Then the high _ priest ques- tioned Je- sus a- bout his di- sci- ples|
 C,2 C,2 B,,2 A,,2 B,,2 G,,8 | (A,,2 C,2) C,2 (B,,2 A,,2) G,,2 G,,8 |"^Instrument change" z6 | z6 | %215
w: and a- bout his tea- ching.|Je- * sus an- * swered him.|||
 z6 | z6 | z6 | z6 | z6 | z6 | z6 | z6 | z6 | z6 | z6 | %226
w: |||||||||||
"^Instrument change" G,,2 G,,2 G,,2 G,,2 (A,,2 F,,2) D,,2 (D,,2 F,,2) (E,,2 F,,2) F,,2 (F,,2 G,,8) | %227
w: I have spo- ken o- * pen- ly _ to _ the * world;|
 G,,2 G,,2 (G,,2 A,,2) F,,2 (F,,2 D,,2) (D,,2 F,,2) F,,2 F,,2 F,,8 | F,,2 F,,2 G,,2 A,,2 A,,8 | %229
w: I have al- * ways taught _ in _ sy- na- gogues|and in the tem- ple,|
 A,,2 (A,,2 G,,2) A,,2 F,,2 G,,2 A,,2 G,,2 F,,8 | %230
w: where all _ the Jews come to- ge- ther.|
 E,,2 G,,2 A,,2 (F,,2 G,,2) F,,2 E,,2 (D,,2 E,,2) E,,8 | B,,2 G,,2 E,,2 (G,,2 E,,2) E,,8 | %232
w: I have said no- * thing in sec- * ret.|Why do you ask _ me?|
 B,,2 (E,,2 G,,2 E,,2) G,,2 G,,2 G,,2 A,,2 B,,8 | %233
w: Ask those _ _ who heard what I said,|
 G,,2 G,,2 E,,2 A,,2 (A,,2 G,,2) (E,,2 F,,2) E,,8 | A,,2 F,,2 F,,2 A,,2 (A,,2 G,,2 A,,8) | %235
w: who heard what I said _ to _ them;|they know what I said, _ _|
 F,,2 F,,2 D,,2 E,,2 (F,,2 G,,2) A,,2 G,,8 |"^Instrument change" z6 | z6 | z6 | z6 | z6 | %241
w: they know what I said _ to them.||||||
"^Instrument change" E,,2 A,,2 A,,2 C,2 A,,8 | %242
w: When he had said this,|
 C,2 C,2 C,2 E,2 E,2 C,2 C,2 A,,2 C,2 C,2 B,,2 B,,2 B,,2 A,,2 B,,8 | (C,2 D,2 C,2)[K:treble] B,8 | %244
w: one of the po- lice, stand- ing near- by struck Je- sus on the face,|say- * * ing,|
"^Instrument change" z6 | %245
w: |
"^Instrument change" G,,2 E,,2 F,,2 G,,2 (G,,2 C,,2) D,,2 E,,2 (G,,2 A,,2 F,,2) (E,,2 D,,2 E,,8) | %246
w: Is that how you an- * swer the high _ _ priest? _ _|
"^Instrument change" z6 | z6 | z6 | z6 | z6 | z6 | x6 |"^Instrument change" C,2 B,,2 A,,2 G,,8 | %254
w: |||||||Je- sus an- swered,|
"^Instrument change" z6 | z6 | z6 | z6 | z6 | z6 | z6 | z6 | %262
w: ||||||||
"^Instrument change" G,,2 B,,2 (B,,2 G,,2) B,,2 G,,2 (G,,2 E,,2 G,,8) | %263
w: If I have _ spo- ken wrongly, _ _|
 (B,,2 A,,2 B,,2) G,,2 G,,2 G,,2 G,,2 (F,,2 E,,2 F,,2 E,,8) | %264
w: te- * * sti- fy to that wrong. _ _ _|
 A,,2 A,,2 A,,2 A,,2 G,,2 A,,2 (A,,2 F,,2) F,,8 | (F,,2 A,,2) G,,2 A,,2 B,,2 B,,8 | %266
w: But if I have sp- ken righ- * tly,|why _ do you strike me?|
"^Instrument change" z6 | z6 | z6 |"^Instrument change" G,,2 C,2 C,2 (C,2 B,,2) (C,2 B,,2) C,8 | %270
w: |||Then An- nas sent _ him _ bound|
 B,,2 (C,2 D,2) B,,2 B,,2 A,,2 (B,,2 G,,2) G,,8 | %271
w: to Cai- * a- phas the high _ priest.|
 E,,2 E,,2 A,,2 (A,,2 C,2) A,,2 A,,2 (A,,2 G,,2 A,,2) E,,2 E,,2 A,,2 (G,,2 F,,2) E,,2 E,,8 | %272
w: Now Si- mon Pe- * ter was stan- * * ding and war- ming _ him- self.|
 (E,,2 B,,2) (C,2 D,2 B,,2) A,,8 | z4 E,,2 E,2 | ^C,2 C,C, D,2 A,,2 | G,,G,, D,D, E,2 D,2 | %276
w: They _ asked _ _ him,|Are you|not one of his di-|sci- ples, one of his di-|
 (D,3 ^C,) D,2 A,,A,, | D,6 =C,2 | (B,,4 C,4) | B,,8 ||"^VII. Recitative" z6 | %281
w: sci- * ples, one of|his di-|sci- *|ples?||
"^Instrument change" B,,2 C,2 D,2 D,2 A,,2 (A,,2 B,,2 C,2) (A,,2 G,,2) G,,8 | %282
w: He _ de- nied _ it _ _ and _ said,|
"^Instrument change" z6 | z6 | z6 | z6 | z6 |"^Instrument change" (D,2 A,,2) (B,,2 C,2) D,8 | %288
w: |||||I _ am _ not.|
"^Instrument change" z6 | z6 | z6 | z6 | z6 | z6 | z6 | z6 | z6 | z6 | z6 | z6 | z6 | %301
w: |||||||||||||
"^Instrument change" D,2 B,,2 B,,2 B,,2 B,,2 A,,2 (B,,2 G,,2) G,,8 | %302
w: One of the slaves of the high _ priest|
 (G,,2 A,,2) B,,2 B,,2 B,,2 B,,2 B,,2 D,8 | %303
w: a _ re- la- tive of the man|
 B,,2 B,,2 B,,2 A,,2 A,,2 A,,2 C,2 (D,2 E,2) D,2 D,2 C,8 |"^Instrument change" z6 | z6 | z6 | z6 | %308
w: whose ear Pe- ter had cut of, asked _ him and said,|||||
 z6 | z6 | z6 |"^Instrument change" G,,2 G,,2 E,,2 G,,2 A,,2 F,,2 F,,2 (F,,2 E,,2) E,,2 F,,2 G,,8 | %312
w: |||Did I not see you in the gar- * den with him?|
"^Instrument change" z6 | z6 | z6 | z6 | %316
w: ||||
"^Instrument change" G,,2 (A,,2 C,2) A,,2 A,,2 G,,2 (A,,2 F,,2) F,,8 | %317
w: A- gain _ Pe- ter de- nied _ it,|
 A,,2 A,,2 C,2 C,2 B,,2 A,,2 (B,,2 C,2) (A,,2 G,,8) | %318
w: and at that mo- ment the cock _ crowed. _|
 E,,2 A,,2 A,,2 A,,2 A,,2 B,,2 C,2 C,2 C,2 C,2 C,2 B,,2 C,2 C,2 A,,8 | A,,2 A,,2 A,,2 G,,2 B,,8 | %320
w: Then they took Je- sus from Cai- a- phas to Pi- lates head- quar- ters.|And it was ear- ly.|
 B,,2 B,,2 B,,2 B,,2 B,,2 A,,2 B,,2 G,,2 (F,,2 G,,2) G,,2 E,,8 | %321
w: They them- selves did not en- ter the head- * quar- ters,|
 G,,2 G,,2 G,,2 A,,2 B,,2 B,,2 B,,2 B,,2 A,,2 B,,2 A,,8 | %322
w: so as to a- void ri- tu- al de- file- ment|
 A,,2 A,,2 B,,2 C,2 C,2 C,2 (B,,2 A,,2) B,,2 A,,2 G,,2 A,,8 | E,,2 A,,2 A,,2 A,,2 A,,2 A,,2 C,8 | %324
w: and to be ab- le to eat _ the Pas- so- ver.|and Pi- late went out to them|
 B,,2 (A,,2 G,,8) |"^Instrument change" z6 | %326
w: and said, _||
"^Instrument change" G,,2 G,,2 G,,2 B,,2 B,,2 B,,2 (A,,2 C,2) C,8 | C,2 (A,,2 B,,2) C,2 D,8 | %328
w: What ac- cu- sa- tion do you _ bring|a- gainst _ this man?|
"^Instrument change" z6 | z6 |"^Instrument change" B,,2 (C,2 B,,2) A,,2 B,,8 | %331
w: ||They an- * swered him,|
"^Instrument change" z6 | z6 | z6 | z6 | z6 |"^Instrument change" z4 B,,2 A,,2 | %337
w: |||||If this|
 B,,2 C,2 D,2 z C, | C,2 (B,,A,,) B,,2 C,2 | D,2 E,2 (B,,2 C,2 | D,2 E,2 D,2) D,2 | %341
w: man were not, were|not a _ cri- mi-|nal, a cri- *|* * * mi-|
 C,2 G,,G,, E,,E,,E,,E,, | A,,2 z A,, F,,F,,F,,F,, | C,2 z C, C,C,C,A,, | B,,2 B,,B,, (E,2- | %345
w: nal we would not have han- ded|him, would not have han- ded|him, would not have han- ded|him o- ver, o-|
 E,D, C,B,, A,,3 G,,) | (B,,A,,) ^G,,2 A,,2 z C, | A,,A,,A,,A,, D,2 z D, | B,,B,,B,,B,, E,2 z E, | %349
w: |ver _ to you, would|not have han- ded him, would|not have han- ded him, would|
 C,C,C,C, F,4 | E,C, (E,3 D, C,2- | C,B,, A,,3 G,, F,,2- | F,,G,,) A,,4 A,,2 | ^G,,8 || %354
w: not have han- ded him|ov- er, o- * *||* * ver to|you.|
"^IX. Recitative" z6 |"^Instrument change" B,,2 B,,2 (G,,2 C,2 B,,2) A,,2 (B,,2 A,,8) | %356
w: |Pi- late said _ _ to them. _|
"^Instrument change" z6 | z6 | z6 | z6 | z6 | z6 | z6 | %363
w: |||||||
"^Instrument change" A,,2 C,2 E,2 (D,2 C,2 D,8) | G,,2 (A,,2 B,,2) B,,8 | %365
w: Take him your- selves _ _|and judge _ him|
 C,2 C,2 C,2 D,2 E,2 (D,2 C,8) |"^Instrument change" z6 | z6 | z6 | z6 | z6 | %371
w: ac- cor- ding to your law. _||||||
"^Instrument change" C,2 G,,2 G,,2 (A,,2 B,,2 A,,2 G,,2 A,,8) |"^Instrument change" z6 | z6 | z6 | %375
w: The Jews re- plied, _ _ _ _||||
 z6 | z6 | z6 |[M:2/2]"^Instrument change" z8 | z8 | z4 A,,2 A,,2 | E,2 B,,2 C,2 ^G,,2 | %382
w: |||||We are|not per- mit- ted|
 A,,2 E,,2 A,,2 A,,2 | A,,4 ^G,,4 | (A,,2 B,,2 C,2) C,2 | B,,8 ||"^XI. Recitative" z8 | %387
w: to put a- ny-|one to|death, _ _ to|death.||
"^Instrument change" E,,2 B,,2 B,,2 B,,2 (A,,2 B,,2) G,,2 G,,2 G,,2 A,,2 B,,8 | %388
w: (This was to ful- fil _ what Je- sus had said|
 B,,2 B,,2 C,2 A,,2 A,,2 E,,2 E,,2 E,,2 A,,2 A,,2 G,,2 G,,2 F,,2 (G,,2 F,,2 E,,8) | %389
w: when he in- di- ca- ted the kind of death he was to die.) _ _|
 E,,2 A,,2 A,,2 C,2 B,,2 A,,2 (C,2 A,,2) A,,2 G,,2 A,,2 E,,8 | A,2 A,2 C2 A,8 | %391
w: Then Pi- late en- tered the head _ quar- ters a- gain,|sum- moned Je- sus,|
 (A,2 B,2 C2) (B,2 A,2) B,8 |"^Instrument change" z8 | %393
w: and _ _ asked _ him,||
"^Instrument change" G,,2 (A,,2 C,2) A,,2 (B,,2 C,2) D,2 D,2 (D,2 C,8) |"^Instrument change" z8 | %395
w: 'Are you _ the King _ of the Jews?' _||
 z8 | z8 | z8 | z8 |"^Instrument change" C,2 G,,2 (A,,2 G,,2 F,,2) G,,8 |"^Instrument change" z8 | %401
w: ||||Je- sus an- * * swered,||
 z8 | z8 | z8 | z8 | z8 | z8 | z8 |"^Instrument change" E,,2 G,,2 G,,2 G,,2 (G,,2 F,,2) G,,2 A,,8 | %409
w: |||||||'Do you ask this on _ your own,|
 F,,2 F,,2 F,,2 D,,2 E,,2 (F,,2 E,,2) E,,2 (G,,2 A,,2 G,,2) G,,8 |"^Instrument change" z8 | %411
w: or did o- thers tell you * a- bout _ _ me?||
"^Instrument change" (G,,2 C,2) A,,2 B,,2 G,,8 |"^Instrument change" z8 | z8 | z8 | z8 | z8 | z8 | %418
w: Pi- * late re- plied,|||||||
"^Instrument change" G,,2 B,,2 B,,2 C,2 C,2 D,2 D,8 | %419
w: I am not a Jew, am I?|
 B,,2 D,2 D,2 D,2 D,2 E,2 (D,2 B,,2) G,,2 B,,2 B,,2 C,2 (D,2 B,,2) C,2 A,,2 (F,,2 A,,2) F,,8 | %420
w: Your own na- tion and the chief * priests have han- ded you _ o- ver to _ me.|
 (A,,2 C,2) B,,2 A,,2 B,,8 |"^Instrument change" z8 | z8 | z8 | z8 | z8 | z8 | z8 | z8 | z8 | z8 | %431
w: What _ have you done?|||||||||||
 z8 |"^Instrument change" B,,2 E,,2 (G,,2 B,,2) A,,2 G,,2 G,,8 |"^Instrument change" z8 | z8 | z8 | %436
w: |Je- sus an- * swered, and said:||||
 z8 | z8 | z8 | z8 | %440
w: ||||
"^Instrument change" (E,,2 G,,2) G,,2 G,,2 A,,2 (G,,2 F,,2) F,,2 G,,2 (F,,2 E,,8) | %441
w: 'My _ king- dom is not _ from this world. _|
 G,,2 G,,2 G,,2 A,,2 A,,2 F,,2 (F,,2 D,,2) F,,8 | %442
w: If my king- dom were from this _ world,|
 F,,2 F,,2 F,,2 F,,2 F,,2 G,,2 A,,2 F,,2 G,,2 G,,2 G,,2 G,,2 G,,2 A,,2 B,,2 B,,2 C,2 B,,2 (B,,2 A,,2 B,,2) C,2 (A,,2 G,,8) | %443
w: my fol- low- ers would be figh- ting to keep me from be- ing han- ded o- ver to _ _ the Jews. _|
 G,,2 G,,2 E,,2 A,,8 | G,,2 G,,2 A,,2 G,,2 (E,,2 F,,2) G,,2 E,,8 |"^Instrument change" z8 | z8 | %447
w: But as it is,|my king- dom is not _ from here.'|||
 z8 | z8 | z8 |"^Instrument change" E,2 B,2 (C2 B,2) (A,2 G,8) |"^Instrument change" z14 | z8 | %453
w: |||Pi- late asked _ him, _|||
 z8 | z8 | z8 | z8 |"^Instrument change" G,2 A,2 (C2 B,2 C2) D2 (D2 C8) |"^Instrument change" z8 | %459
w: ||||'So you are _ _ a king?' _||
 z8 | z8 | z8 | z8 | z8 | z8 |"^Instrument change" (C,2 A,,2) C,2 (B,,2 A,,2) B,,8 | %466
w: ||||||Je- * sus an- * swered,|
"^Instrument change" z8 | z8 | z8 | z8 | z8 | z8 | z8 | z8 | %474
w: ||||||||
"^Instrument change" (G,,2 F,,2 G,,2) (G,,2 F,,2 E,,2) E,,2 (B,,2 G,,2) E,,2 G,,2 E,,8 | %475
w: You _ _ say _ _ that I _ am a king.|
 B,,2 G,,2 G,,2 G,,2 (G,,2 E,,2 G,,8) | G,,2 D,,2 E,,2 F,,2 G,,2 A,,2 B,,2 A,,2 | G,,8 | %478
w: For this I was born, _ _|and for this I came in- to the|world,|
 (G,,2 A,,2) B,,2 B,,2 B,,2 A,,2 B,,2 A,,2 (B,,2 A,,2) G,,8 | %479
w: to _ tes- ti- fy un- to the truth. _ _|
 F,,2 F,,2 F,,2 F,,2 G,,2 A,,2 A,,2 G,,2 A,,8 | G,,2 E,,2 (F,,2 E,,2) (E,,2 A,,2) G,,8 | %481
w: Ev- 'ry one who be- longs to the truth|li- stens to _ my _ voice.'|
"^Instrument change" z8 |"^Instrument change" B,,2 G,,2 (C,2 B,,2 A,,2) G,,8 | %483
w: |Pi- late asked _ _ him,|
"^Instrument change" z8 | z8 | z8 | z8 | z8 | z8 | z8 | %490
w: |||||||
"^Instrument change" B,,2 (D,2 E,2 C,2) (B,,2 A,,2 C,8) |"^Instrument change" z8 | z8 | z8 | z8 | %495
w: 'What is _ _ truth?' _ _|||||
 z8 | z8 | z8 |"^Instrument change" C,2 G,,2 G,,2 G,,2 (A,,2 B,,2) B,,8 | %499
w: |||Af- ter he had said _ this,|
 B,,2 B,,2 B,,2 B,,2 B,,2 (B,,2 C,2 D,2) (B,,2 A,,2) B,,8 | G,,2 (C,2 B,,2 A,,2) G,,8 | %501
w: he went out a- gain to _ _ the _ Jews|and told _ _ them,|
"^Instrument change" z8 |"^Instrument change" G,,2 C,2 C,2 C,2 D,2 (B,,2 G,,2) G,,8 | %503
w: |'I find no case a- gainst _ him.|
 A,,2 C,2 C,2 C,2 (C,2 A,,2) C,8 | C,2 D,2 E,2 C,2 C,2 C,2 A,,2 C,2 A,,2 C,2 C,2 A,,2 C,8 | %505
w: But you have a cus- * tom|that I re- lease some- one for you at the Pas- so- ver.|
 C,2 B,,2 C,2 D,2 D,2 (D,2 C,2) B,,2 C,2 D,2 E,2 E,2 C,2 B,,2 (C,2 D,8) |"^Instrument change" z8 | %507
w: Do you want me to re- * lease to you the King of the Jews?' _||
 z8 | z8 | z8 |"^XII. Chorus" z8 |"^Instrument change" B,,2 D,2 C,2 B,,2 G,,2 A,,8 | %512
w: ||||They shou- ted in re- ply,|
"^Instrument change" z8 | z8 | z8 | z8 | z8 |[M:2/2]"^Instrument change" z4 z2 E,2 | %518
w: |||||Not|
 B,,2 B,,2 z2 (D,A,,) | C,3 C, A,,2 (C,A,,) | D,6 A,,2 | A,,4 z2 (E,B,,) | C,3 C, A,,2 A,,2- | %523
w: this man but _|Ba- rab- bas, but _|Ba- rab-|bas! but _|Ba- rab- bas, Ba-|
 A,,2 A,,2 ^G,,4 | z2 (B,,E,,) !courtesy!=G,,3 G,, | E,,2 (C,G,,) B,,3 B,, | A,,2 (D,A,,) C,3 C, | %527
w: * rab- bas!,|but _ Ba- rab-|bas, but _ Ba- rab-|bas, but _ Ba- rab-|
 A,,2 C,4 C,2 | B,,8 ||"^XIII. Recitative" z8 | %530
w: bas, Ba- rab-|bas!||
"^Instrument change" G,,2 B,,2 G,,2 G,,2 A,,2 E,,2 (G,,2 F,,2) E,,8 | %531
w: Now Ba- rab- cas was a ban- * dit.|
 E,,2 A,,2 A,,2 A,,2 C,2 B,,2 A,,2 A,,2 G,,2 A,,8 | %532
w: Then Pi- late took Je- sus and had him flogged.|
 (E,,2 B,,2) A,,2 B,,2 G,,2 (B,,2 C,2 A,,2) A,,2 (B,,2 C,2 D,2) (B,,2 A,,2) B,,2 G,,2 C,2 C,2 D,2 (E,2 D,2 C,2) C,8 | %533
w: And _ the sol- diers wove _ _ a crown _ _ of _ thorns and put it on his _ _ head,|
 C,2 G,,2 G,,2 G,,2 G,,2 A,,2 (B,,2 A,,2) G,,2 A,,8 | %534
w: and they dressed him in a pur- * ple robe.|
 C,2 A,,2 A,,2 A,,2 A,,2 G,,2 (A,,2 G,,2) (A,,2 B,,2) (C,2 B,,2) B,,8 | z8 | ^G,,2 G,,2 A,,4- | %537
w: They kept co- ming up to him, _ and _ say- * ing,||Hail, hail, hail|
 A,,2 ^G,,^F,, G,,4 | z4 D,2 B,,B,, | G,,2 C,4 A,,2 | (C,2 E,4 D,C,) | D,4 D,2 B,,B,, | %542
w: _ _ _ _|King of the|Jews, hail, hail,|hail, _ _ _|hail; King of the|
 (D,2 C,2) C,2 A,,A,, | F,,2 (C,4 A,,2) | (C,2 B,,A,,) B,,4 | E,2 C,C, A,,2 B,,2 | %546
w: Jews, _ King of the|Jews hail, _|hail, _ _ hail|King of the Jews hail,|
 E,,2 (A,,4 ^G,,2) | A,,8 ||"^Instrument change" z8 | %549
w: hail, hail, _|hail!||
"^Instrument change" A,,2 C,2 C,2 C,2 A,,2 B,,2 C,2 (B,,2 A,,8) | %550
w: and stri- king him on _ the face. _|
 A,,2 E,,2 A,,2 A,,2 A,,2 A,,2 A,,2 C,8 | A,,2 B,,2 C,2 (A,,2 G,,8) |"^Instrument change" z8 | %553
w: Pi- late went out a- gain to them|and said to them, _||
"^Instrument change" (D,2 C,2 B,,8) | D,2 G,,2 G,,2 G,,2 G,,2 (A,,2 B,,2) C,2 D,8 | %555
w: 'Look, _ _|I am brin- ging him out _ to you|
 B,,2 (B,,2 A,,2) C,2 C,8 | C,2 A,,2 B,,2 C,2 D,2 B,,2 (C,2 B,,2 A,,2) A,,8 | %557
w: to let _ you know|that I find no case a- gainst _ _ him.'|
"^Instrument change" z8 |"^Instrument change" E,,2 A,,2 A,,2 A,,2 C,8 | %559
w: |So Je- sus came out,|
 A,,2 A,,2 A,,2 (A,,2 C,2 B,,2) A,,2 (C,2 A,,8) | G,,2 B,,2 B,,2 B,,2 B,,8 | %561
w: wea- ring the crown _ _ of thorns _|and the pur- ple robe.|
 C,2 C,2 D,2 E,2 (D,2 C,8) |"^Instrument change" z8 | %563
w: Pi- late said to them, _||
"^Instrument change" B,,2 (C,2 D,2) B,,2 (D,2 E,2 C,2 B,,2 A,,2 B,,8) |"^Instrument change" z8 | %565
w: Here is _ the man. _ _ _ _ _||
 z8 | z8 | z8 | z8 | z8 | z8 |"^Instrument change" E,,2 B,,2 A,,2 C,8 | %572
w: ||||||When the chief priests|
 A,,2 B,,2 A,,2 D,2 (B,,2 C,2 D,2) (C,2 B,,8) | C,2 (D,2 E,2) (D,2 C,8) |[M:3/4] z2 (G,,2 C,2- | %575
w: and the po- lice saw _ _ him, _|they shou- * ted, _|Cru- *|
 C,B,, A,,2 B,,2 | B,,A,, G,,2 A,,2- | A,,)G,, F,,2 D,,2 | (G,,2 C,3 B,, | A,,3) B,, C,2 | %580
w: ||* ci- fy him,|cru- * *|* ci- fy|
 B,,2 (D,2 E,2- | E,D, C,2 D,2- | D,C, B,,2 C,2- | C,B,, A,,2) A,,A,, | B,,3 A,, ^G,,2 | %585
w: him, cru- *|||* * * ci- fy,|cru- ci- fy,|
 A,,3 A,, B,,2 | C,3 B,, A,,2 | !fermata!B,,6 ||"^XVII. Recitative" z6 | %589
w: cru- ci- fy,|cru- ci- fy|him.||
"^Instrument change" (B,,2 E,2) B,,2 (C,2 B,,2) (B,,2 A,,2) B,,8 |"^Instrument change" z6 | z6 | %592
w: Pi- * late said _ to _ them,|||
 z6 | z6 | z6 | z6 | z6 | z6 |"^Instrument change" (B,2 D2) G,8 (B,2 C2) D8 | %599
w: ||||||'Take _ him your- * selves|
 G,2 (B,2 C2 B,2) A,2 A,2 G,8 | A,2 A,2 A,2 A,2 C2 (D2 B,2) A,8 |"^Instrument change" z6 | z6 | %603
w: and cru- * * ci- fy him;|I find no case a- gainst _ him.'|||
"^Instrument change" A,,2 (C,2 A,,2) (A,,2 E,,2 G,,2) A,,2 A,,8 |"^Instrument change" z6 | z6 | %606
w: The Jews _ an- * * swered him,|||
 z6 | z6 | z6 | z6 ||"^Instrument change" z4 ^G,,2 G,,G,, | ^G,,2 A,,2 A,,2 G,,2 | %612
w: ||||'We have a|law, we have a|
 ^G,,2 G,,G,, A,,=G,,A,,B,, | (C,2 B,,2) (G,,C,F,,>G,,) | A,,2 (G,,F,,) G,,4 | z ^C, C,C, C,2 D,2 | %616
w: law, and ac- cor- ding to that|law _ he _ _ _|ought to _ die|We have a law, a|
 (D,2 ^C,2) z4 | =C,B,,(C,D,) (E,2 C,2) | z G,, B,,2 (D,E,) C,2 | C,2 (B,,A,,) B,,4 | %620
w: law, _|and by that * law, _|and by that _ law|ought to _ die|
 z4 z E,,^F,,=G,, | A,,2 B,,2 C,2 A,,2 | A,,3 ^G,, A,,4 | z8 | z B,, C,D, E, E,,F,,F,, | %625
w: Be- cause he|claimed to be the|Son of God,||to be the Son, to be the|
 (G,,2 F,,2) (E,,G,, C,2) | A,,2 C,4 (B,,A,,) | ^G,,2 A,,4 G,,2 | A,,8 ||"^XIX. Recitative" z6 | %630
w: Son _ of _ _|God, Son of _|God, Son of|God.'||
"^Instrument change" E,,2 E,,2 A,,2 A,,2 (A,,2 C,2) A,,8 | %631
w: Now when Pi- late heard _ this,|
 C,2 A,,2 A,,2 A,,2 (A,,2 B,,2) C,2 D,2 D,8 | D,2 (D,2 G,,2) G,,2 G,,2 G,,2 A,,2 B,,2 A,,2 B,,8 | %633
w: he was more a- fraid _ than e- ver.|He en- * tered his head- quar- ters a- gain|
 C,2 (D,2 E,2) D,2 C,8 |"^Instrument change" z8 |"^Instrument change" E,2 C,2 (A,,2 C,2) B,,8 | %636
w: and asked _ Je- sus,||Where are you _ from?|
"^Instrument change" z6 | z8 | z6 | z6 | z8 | z6 | z6 | z6 | %644
w: ||||||||
"^Instrument change" (B,2 E,2) G,2 G,2 G,2 G,2 (A,2 G,2) F,2 E,8 | A,2 A,2 A,2 B,2 C2 B,2 A,8 | %646
w: But _ Je- sus gave him no _ an- swer.|Pi- late there- fore said to him,|
"^Instrument change" z6 | z6 |"^Instrument change" D,2 B,,2 A,,2 B,,2 C,2 D,2 G,,2 B,,8 | %649
w: ||'Do you re- fuse to speak to me?|
 B,,2 (B,,2 C,2) A,,2 A,,2 G,,2 G,,2 A,,2 B,,2 G,,2 C,2 C,2 C,8 | %650
w: Do you _ not know that I have pow'r to re- lease you,|
 A,,2 B,,2 B,,2 C,2 (D,2 E,2) D,2 (D,2 C,2) C,8 |"^Instrument change" z6 | z6 | z6 | z6 | z6 | z6 | %657
w: and po- wer to cru- * ci- fy _ you?'|||||||
"^Instrument change" C,2 B,,2 A,,2 A,,2 G,,8 |"^Instrument change" z6 | z6 | z6 | z6 | z6 | z6 | %664
w: Je- sus an- swered him,|||||||
 z6 | z6 |"^Instrument change" E,,2 E,,2 G,,2 A,,2 G,,2 F,,2 F,,2 G,,2 E,,8 | %667
w: ||'You would have no po- wer o- ver me|
 E,,2 G,,2 G,,2 G,,2 G,,2 A,,2 B,,2 (A,,2 B,,2) (G,,2 E,,2) A,,2 G,,8 | %668
w: un- less it had been gi- ven you _ from _ a- bove;|
 (G,,2 A,,2) F,,2 F,,2 F,,2 F,,2 F,,2 F,,2 D,,2 F,,2 F,,2 F,,2 F,,8 | %669
w: there- * fore the one that han- ded me o- ver to you|
 F,,2 E,,2 F,,2 G,,2 F,,2 (E,,2 G,,2) A,,2 G,,8 |"^Instrument change" z6 | z6 | %672
w: is guil- ty of a grea- * ter sin.'|||
"^Instrument change" G,,2 G,,2 B,,2 D,2 B,,2 B,,2 B,,2 A,,2 B,,2 B,,8 | %673
w: From then on Pi- late tried to re- lease him,|
 E,,2 B,,2 (C,2 D,2) (B,,2 C,2 B,,2) A,,8 |[M:4/4] z4 C,2 A,,A,, | B,,2 G,,2 D,2 C,C, | %676
w: but the Jews _ cried _ _ out,|If you re-|lease this man, you are|
 B,,2 z B,, A,,2 A,,2 | (^G,,2 A,,4) G,,G,, | A,,4 =G,,2 C,C, | B,,2 G,,2 C,2 A,,2 | %680
w: not, are not the|em- * pe- ror's|friend, If you re-|lease, re- lease this|
 E,2 B,,B,, A,,2- A,,A,, | G,,4 C,2 D,2- | D,C, C,4 B,,B,, | C,4 z2 C,C, | C,2 C,2 D,D,D,D, | %685
w: man, you are not, _ are|not, are not|_ the em- pe- ror's|friend; E- v'ry|one who claims to be a|
 B,,4 C,2 G,,2 | E,,2 C,,2 C,2 E,2 | C,3 C, D,2 B,,B,, | ^G,,2 G,,2 A,,A,,A,,A,, | D,4 G,,2 B,,2 | %690
w: king sets him-|self a- gainst the|em- pe- ror, e- v'ry|one who claims to be a|king sets him-|
 G,,2 E,,2 (C,3 B,, | A,,2) B,,2 D,2 D,2 | G,,G,,G,,G,, A,,2- A,,A,, | F,,4 G,,3 G,, | %694
w: self a- gainst _|_ the em- per-|or, a- gainst the em- * pe-|ror, sets him-|
 (E,,2 C,,2 C,4- | C,2) E,2 (C,4- | C,4 D,2 A,,2 | F,,2) D,,2 (D,3 C, | B,,2) C,2 B,,2 B,,2 | %699
w: self _ _|_ a- gainst,|_ _ _|* the em- pe-|ror, the em- pe-|
 !fermata!A,,8 ||"^XXI. Recitative" z8 |"^Instrument change" A,,2 A,,2 C,2 D,2 B,,2 G,,8 | %702
w: ror||When Pi- late heard these words,|
 G,,2 (A,,2 B,,2) D,2 B,,2 C,2 D,8 | %703
w: he brought _ Je- sus out- side|
 D,2 G,,2 G,,2 G,,2 (E,,2 G,,2) G,,2 G,,2 G,,2 A,,2 B,,2 B,,2 B,,2 (B,,2 C,2) (C,2 A,,2) A,,8 | %704
w: and sat on the jud- * ges bench at a place called the Stone _ Pave- * ment,|
 E,,2 A,,2 A,,2 A,,2 A,,2 A,,2 A,,2 (C,2 A,,2) A,,2 A,,2 A,,2 A,,2 A,,2 A,,2 G,,2 A,,8 | %705
w: Now it was the day of the Pre- * pa- ra- tion of the Pas- so- ver;|
 A,,2 A,,2 A,,2 A,,2 (B,,2 A,,2) B,,8 | C,2 (C,2 B,,2) B,,2 C,2 (D,2 C,8) | %707
w: and it was a- bout _ noon.|He said _ to the Jews, _|
"^Instrument change" z8 | z8 | z8 | %710
w: |||
"^Instrument change" (G,,2 C,2 A,,2) A,,2 (C,2 A,,2 B,,2 C,2) (D,2 E,2 D,2 C,8) | %711
w: 'Here _ _ is your _ _ _ King!' _ _ _|
"^Instrument change" z8 | z8 | z8 | z8 | z8 | %716
w: |||||
"^Instrument change" C,2 (D,2 E,2 C,2) (B,,2 A,,2 B,,8) |"^Instrument change" z8 | z8 | z8 | z16 | %721
w: They cried _ _ out, _ _|||||
[M:3/4]"^Instrument change" z6 | B,,2 E,2 C,2 | B,,4 z2 | E,,3 E,, E,2 | ^C,3 C, D,2 | %726
w: |A- way with|him,|cru- ci- fy,|cru- ci- fy|
 A,,2 A,,3 A,, | G,,4 A,,2 | A,,2 D,2 B,,2 | A,,2 ^F,,2 F,,F,, | G,,3 A,, B,,2 | C,3 C, C,2 | %732
w: him, cru- ci-|fy him!|A- way with|him, cru- ci- fy,|cru- ci- fy,|cru- ci- fy,|
 B,,3 C, D,2 | C,2 G,,2 A,,A,, | B,,3 C, D,2 | E,3 D, B,,2 | C,3 B,, A,,2 | B,,6 || %738
w: cru- ci- fy|him! Cru- ci- fy,|cru- ci- fy,|cru- ci- fy,|cru- ci- fy|him.!|
"^XXIII. Recitative" z6 |"^Instrument change" (B,,2 G,,2) C,2 (B,,2 G,,2 A,,2) G,,8 | %740
w: |Pi- * late asked _ _ them:|
"^Instrument change" z22 | z6 | z6 | z6 | z6 || z6 | %746
w: ||||||
"^Instrument change" B,,2 D,2 C,2 B,,2 (C,2 D,2) B,,2 (C,2 E,2 D,2 C,2 D,8) | %747
w: 'Shall I cru- ci- fy _ your King?' _ _ _ _|
"^Instrument change" z6 | z6 | z6 | z6 | z6 | z6 |"^Instrument change" G,,2 (B,,2 D,2) B,,8 | %754
w: ||||||The chief _ priests|
 (B,,2 C,2 B,,2 A,,2) B,,8 |"^Instrument change" z6 | z6 | z6 | z6 | z6 | %760
w: ans- * * wered him,||||||
[M:4/4]"^Instrument change" B,,2 B,,C, D,C,A,,B,, | (C,4 B,,4) | A,,2 A,,2 (A,,3 ^G,,) | %763
w: We have no king, we have no|king _|but the em- pe-|
 A,,C,C,D, E,D,B,,C, | D,C,A,,B,, (C,2 G,,2) | C,4 B,,4 | (A,,4 G,,2 C,2- | C,2 B,,2 A,,2) A,,2 | %768
w: ror, we have no king, we have no|king, we have no king, _|but the|em- * *|* * * pe-|
 B,,4 z G,, G,,A,, | B,,3 A,, (F,,G,,)(A,,G,,) | E,,F,, (G,,4 ^F,,2) | z8 | D,4 C,4 | B,,4 A,,4 | %774
w: ror, we have no|king, no king, _ no _|king, no king, _||we have|no king|
 ^G,,4 A,,2 (A,,2- | A,,2 ^G,,^F,, G,,4) | !fermata!A,,8 ||"^XXV. Recitative" z8 | %778
w: but the em-|* * * pe-|ror.||
"^Instrument change" E,,2 A,,2 A,,2 A,,2 C,2 A,,2 A,,2 G,,2 A,,8 | A,,2 B,,2 (C,2 D,2) B,,2 A,,8 | %780
w: Then he han- ded him o- ver to them|to be cru- * ci- fied.|
 (E,,2 B,,2) B,,2 B,,2 (A,,2 B,,2) B,,8 | G,,2 G,,2 G,,2 G,,2 A,,2 B,,2 B,,2 (C,2 A,,2) C,8 | %782
w: So _ they took Je- * sus|and car- ry- ing the cross by him- * self,|
 C,2 C,2 (C,2 D,2) B,,2 B,,2 G,,2 B,,2 G,,2 A,,2 B,,2 C,2 (A,,2 G,,8) | %783
w: he went out _ to what is called the Place of the Skull, _|
 E,,2 F,,2 G,,2 G,,2 G,,2 (A,,2 E,,2) (G,,2 F,,2) E,,2 E,,8 | %784
w: which in Heb- rew is called, _ Gol- * ga- tha.|
 E,,2 B,,2 (C,2 D,2 C,2 B,,2 C,2 B,,2) A,,2 (E,,2 G,,2) (F,,2 E,,8) | %785
w: There they cru- * * * * * ci- fied _ him, _|
 G,,2 G,,2 G,,2 (G,,2 E,,2) G,,2 G,,2 G,,2 E,,2 G,,2 G,,2 E,,8 | %786
w: and with him two _ oth- ers, one on ei- ther side,|
 E,,2 (C,2 A,,2) A,,2 B,,2 (C,2 B,,2) A,,8 | %787
w: with Je- * sus be- tween _ them.|
 E,,2 A,,2 A,,2 A,,2 A,,2 A,,2 G,,2 G,,2 A,,2 A,,2 F,,2 F,,2 F,,2 F,,2 G,,2 A,,8 | %788
w: Pi- late al- so had an in- scrip- tion writ- ten and put on the cross.|
 (A,,2 C,2 A,,2) (F,,2 A,,2 G,,8) | C,8 C,8 C,8 A,,8 C,8 C,8 | C,8 C,8 (C,8 D,8 E,8) D,8 C,8 | %791
w: It _ _ read, _ _|'Je- sus of Na- za- reth,|the King of _ _ the Jews.'|
 C,2 G,,2 G,,2 G,,2 G,,2 G,,2 G,,2 G,,2 A,,2 F,,8 | %792
w: Ma- ny of the Jews read this in- scrip- tion|
 A,,2 C,2 C,2 A,,2 F,,2 A,,2 G,,2 G,,2 G,,2 F,,2 G,,2 E,,2 G,,2 G,,2 A,,2 B,,2 A,,8 | %793
w: be- cause the place where Je- sus was cru- ci- fied was near to the ci- ty;|
 E,,2 A,,2 (A,,2 G,,2) A,,2 E,,8 | (A,,2 G,,2) B,,2 E,,8 | B,,2 B,,2 E,,8 | %796
w: and it was _ writ- ten|in _ He- brew,|in La- tin,|
 (G,,2 A,,2) (B,,2 A,,2) (G,,2 A,,2) G,,8 | E,,2 (E,,2 B,,2) (B,,2 C,2) (D,2 C,2) C,2 A,,2 C,8 | %798
w: and _ in _ Greek. _ _|Then the _ chief _ priests _ of the Jews|
 (B,,2 G,,2) A,,2 B,,2 B,,8 |"^Instrument change" z8 | z8 | z8 | %802
w: said _ to Pil- ate,||||
[M:4/4]"^Instrument change" z4 z2 E,B,, | C,>C, B,,B,,/B,,/ A,,A,, D,D,/D,/ | %804
w: Do not|write, "The King of the Jews, the King of the|
 G,,2 B,,D, C,>C, D,D,/D,/ | E,2 z2 C,2 C,C, | (C,4- C,2 B,,2) | A,,2 A,,2 G,,4 | z4 z F, ^C,C, | %809
w: Jews", do not write, "The King of the|Jews", but, "This man|said, _ _|this man said,|"I am the|
 D,D,/D,/ A,,2 F,2 E,E, | D,D,/D,/ A,,2 z2 A,,2 | (^G,,2 A,,2) A,,3 G,, | A,,2 C,3 C, C,2 | %813
w: King of the Jews, I am the|King of the Jews, the|King _ of the|Jews", but that this|
 C,4 A,,4- | A,,2 G,,2 F,,4 | G,,4 z E, B,,B,, | C,C,/C,/ G,,G,, (E,2 B,,)B,, | %817
w: man said,|_ this man|said, "I am the|King of the Jews, the King _ of|
 (C,2 D,2) (E,2 D,2) | C,2 D,D, (E,2 D,2) | z4 z C, ^G,,G,, | A,,A,,/A,,/ E,,2 z C, ^G,,G,, | %821
w: the _ Jews, _|King of the Jews, _|I am the|King of the Jews, I am the|
 (A,,2 B,,2) C,B,, A,,2 | ^G,,8 ||"^XXVII. Recitative" z8 | %824
w: King, _ King of the|Jews."'||
"^Instrument change" (B,,2 C,2) B,,2 (B,,2 A,,2) G,,8 |"^Instrument change" z8 | z8 | z8 | z8 | %829
w: Pi- * late ans- * swerd,|||||
 z8 | z8 | z8 |"^Instrument change" G,,2 B,,2 (B,,2 C,2) D,2 D,8 | %833
w: |||'What I have _ writ- ten|
 (D,2 B,,2 G,,2) C,2 (B,,2 A,,2) G,,8 |"^Instrument change" z8 | z8 | z8 | z8 | z8 | %839
w: I _ _ have writ- * ten.'||||||
"^Instrument change" E,,2 B,,2 (B,,2 A,,2) B,,8 | B,,2 B,,2 C,2 (C,2 A,,2) (C,2 B,,2 A,,2) B,,8 | %841
w: When the sol- * diers|had cru- ci- fied _ Je- * * sus,|
 B,,2 B,,2 B,,2 (A,,2 C,2) A,,8 | C,2 A,,2 (A,,2 G,,2) A,,2 E,,2 A,,2 C,2 (C,2 B,,2) C,8 | %843
w: they took his clothes _ _|and di- vi- * ded them in- to four * parts,|
 A,,2 A,,2 G,,2 E,,2 E,,8 | G,,2 G,,2 A,,2 (B,,2 A,,2) A,,2 A,,2 G,,8 | %845
w: one for each sol- dier.|they al- so took _ his tu- nic;|
 E,,2 B,,2 B,,2 B,,2 (A,,2 B,,2) B,,2 G,,8 | (B,,2 D,2) B,,2 B,,2 (A,,2 B,,2) E,,2 G,,2 F,,2 E,,8 | %847
w: now the tu- nic was _ seam- less,|wo- * ven in one _ piece from the top.|
 A,,2 A,,2 C,2 C,2 B,,2 A,,2 B,,2 A,,8 |[M:2/2] z4 B,,A,, G,,2 | D,2 (C,B,,) C,4 | %850
w: so they said to one a- no- ther,|Let us not|tear it, _ tear|
 E,4 B,,A,, G,,2 | (D,2 C,B,, A,,4) | G,,4 z4 | A,,G,, (F,,2 E,,2) A,,2 | (A,,3 ^G,,) A,,4 | %855
w: it, let us not|tear _ _ _|it,|let us not, _ not|tear _ it,|
 =C,2 (B,,A,,) B,,2 (A,,=G,,) | A,,2 A,,2 (A,,2 ^G,,2) | z2 C,2 z2 F,,2 | A,,2 C,C, (C,3 B,,) | %859
w: but cast _ lots, cast _|lots for it, _|to, to|see who will get _|
 C,2 C,4 (B,,A,,) | B,,2 (A,,G,, A,,2) A,,2 | G,,8 | z4 G,,2 z B,, | D,2 z A,, (C,2 E,2) | %864
w: it, but cast _|lots, cast _ lots for|it,|to, to|see, to see _|
 C,2 B,,2 A,,4 | ^G,,8 ||"^XXIX. Recitative" z8 | %867
w: who will get|it.'||
"^Instrument change" E,,2 B,,2 B,,2 B,,2 C,2 A,,2 A,,2 (A,,2 C,2) A,,2 (B,,2 A,,2 B,,8) | %868
w: This was to ful- fil what the scrip- * ture says, _ _|
 G,,2 G,,2 C,2 C,2 C,2 A,,2 F,,2 (A,,2 G,,2 F,,2) G,,2 E,,8 | %869
w: 'They div- id- ed my clothes a- mong _ _ them- selves,|
 A,,2 C,2 C,2 (C,2 A,,2) C,2 C,2 (D,2 E,2 A,,2) (C,2 B,,2 A,,8) | %870
w: and for my clo- * thing they cast _ _ lots.' _ _|
 A,,2 C,2 A,,2 A,,2 A,,2 (A,,2 E,,2 G,,2) F,,2 E,,8 | %871
w: And that is what the sol- * * diers did.|
 E,,2 (E,,2 A,,2) A,,2 A,,2 A,,2 G,,2 A,,2 A,,2 C,2 A,,2 A,,2 A,,2 (A,,2 G,,2) A,,8 | %872
w: Mean- while, _ stan- ding near the cross of Je- sus were his mo- * ther,|
 A,,2 A,,2 (A,,2 B,,2) B,,2 (A,,2 B,,2) B,,8 | B,,2 (B,,2 C,2) C,2 C,2 C,2 C,2 (C,2 A,,2) C,8 | %874
w: and his mo- * ther's sis- * ter,|and Ma- * ry the wife of Clo- * pas,|
 C,2 (B,,2 D,2) B,,2 (C,2 B,,2 A,,2) G,,2 G,,8 | E,,2 B,,2 B,,2 C,2 C,2 (C,2 B,,2) B,,8 | %876
w: and Ma- * ry Mag- * * da- len.|When Je- sus saw his mo- * ther|
 A,,2 B,,2 C,2 (C,2 D,2) D,2 E,2 E,2 D,8 | (B,,2 C,2) (D,2 E,2) D,2 D,2 C,8 | %878
w: and the dis- ci- * ple whom he loved|stan- * ding _ be- side her,|
 G,,2 (A,,2 B,,2) C,2 B,,2 (B,,2 A,,2) B,,8 |"^Instrument change" z8 | %880
w: he said _ to his mo- * ther,||
"^Instrument change" (G,,2 A,,2) B,,2 E,,8 | (E,,2 G,,2) G,,2 F,,2 E,,8 |"^Instrument change" z8 | %883
w: 'Wo- * * man,|here _ is your son.'||
 z8 | z8 |"^Instrument change" E,,2 A,,2 A,,2 A,,2 (A,,2 B,,2) C,2 (C,2 B,,2) A,,8 | %886
w: ||Then he said to his _ di- sci- * ple,|
"^Instrument change" z8 | z8 | z8 | %889
w: |||
"^Instrument change" (A,,2 B,,2 E,,2) (E,,2 G,,2) (A,,2 G,,2) (F,,2 E,,2) E,,8 | %890
w: 'Here _ _ is _ your _ mo- * ther.'|
"^Instrument change" z8 | z8 | z8 |"^Instrument change" A,,2 C,2 A,,2 C,8 | %894
w: |||And from that hour|
 C,2 C,2 C,2 C,2 C,2 C,2 C,2 B,,2 (C,2 B,,2) (A,,2 G,,2) G,,8 | %895
w: the dis- ci- ple took her in- to his _ own _ home.|
 E,,2 A,,2 A,,2 A,,2 A,,2 G,,2 A,,2 A,,2 (A,,2 C,2) C,2 A,,2 (A,,2 C,2) C,8 | %896
w: Af- ter this, when Je- sus knew that all _ was now fin- * nished,|
 C,2 B,,2 B,,2 B,,2 B,,2 B,,2 A,,2 B,,2 B,,8 | (D,2 C,2) B,,8 |"^Instrument change" z8 | %899
w: (in or- der to ful- fil the scrip- ture),|he _ said,||
"^Instrument change" (G,,2 A,,2 B,,2) (A,,2 G,,2) G,,8 G,,8 |"^Instrument change" z20 | z8 | z8 | %903
w: I _ _ am _ thir- sty.||||
 z8 | z8 |"^Instrument change" E,,2 B,,2 B,,2 B,,2 (B,,2 A,,2) B,,2 B,,2 A,,2 B,,2 G,,8 | %906
w: ||A jar full of sour _ wine was stan- ding there.|
 B,,2 B,,2 B,,2 C,2 D,2 B,,2 A,,2 B,,2 (B,,2 G,,2) G,,2 G,,2 (C,2 A,,2) A,,2 (G,,2 B,,2) B,,8 | %907
w: So they put a sponge- ful of the wine _ on a branch _ of hys- * sop|
 B,,2 C,8 C,2 C,2 C,2 (A,,2 D,2 C,8) | E,2 C,2 C,2 C,2 C,2 (A,,2 C,2 A,,2) A,,2 (G,,2 A,,2 F,,8) | %909
w: and held it to his mouth. _ _|When Je- sus had re- ceived _ _ the wine, _ _|
 (A,,2 C,2) B,,8 |"^Instrument change" z8 |"^Instrument change" (G,,2 A,,2) B,,2 (A,,8 G,,8) G,,8 | %912
w: he _ said,||It _ is fi- * nished.|
"^Instrument change" z24 | z8 | z8 | z8 | %916
w: ||||
"^Instrument change" (B,,8 D,8) (D,8 A,,8) G,,8 A,,8 B,,8 | E,,2 E,,2 E,,2 G,,2 (F,,8 E,,8) E,,8 | %918
w: Then _ he _ bowed his head|and gave up his spi- * rit.|
[M:4/4] z4 C,2 C,2 | (C,8 | B,,4) B,,4- | B,,4 A,,4 | ^G,,4 A,,4- | A,,4 ^G,,4 | (A,,6 =G,,F,, | %925
w: Help us|Christ,|_ Son|_ of|God, Son|_ of|God, _ _|
 E,,8) | z8 | C,2 B,,2 C,2 D,2 | (E,8- | E,4 ^D,4) | (B,,2 A,,2) ^G,,2 G,,2 | %931
w: _||through your bit- ter|tor-|* ment,|that _ we your|
 (A,,2 =G,,2 F,,2 E,,D,, | E,,2 F,,2) A,,4 | z8 | z4 (C,2 D,2) | E,2 B,,2 (C,2 B,,A,, | %936
w: ser- * * * *|* * vants||that _|we your ser- * *|
 B,,2 C,4 B,,2) | C,4 G,,2 A,,2 | B,,4 (A,,2 B,,2) | C,2 (C,2 B,,4) | A,,4 A,,4 | z4 A,,2 E,,E,, | %942
w: |vants may for|e- ver _|shun all _|e- vil,|and of your|
 (G,,2 F,,2) E,,2 E,,2 | D,,4 z4 | z4 A,,2 A,,A,, | (B,,2 D,2) D,2 ^C,2 | D,4 z4 | %947
w: death _ and its|cause,|and of your|death _ and its|cause|
 (A,,2 B,,2) C,2 D,D, | E,8 | D,4 (A,,4- | A,,2 B,,2) C,2 D,D, | (E,4 D,2 C,2) | D,8- | %953
w: be _ fear- ful- ly|mind-|ful, be|_ _ fear- ful- ly|mind- * *|ful,|
 D,4 C,2 D,2 | (E,2 B,,2) C,2 B,,A,, | ^G,,2 z2 B,,2 A,,2 | E,,2 C,C, B,,3 B,, | A,,4 z4 | %958
w: _ so though|weak _ as we may|be, we will|bring you our hearts and|lives,|
 z4 F,,2 G,,2 | (A,,2 _B,,2) A,,2 =B,,2 | ^C,2 D,2 A,,3 A,, | D,,8 | D,2 D,2 E,2 C,2 | %963
w: so though|poor, _ we will|bring our sa- cri-|fice,|so though poor and|
 C,2 (B,,A,,) G,,2 z2 | E,2 D,2 C,2 B,,2 | (A,,3 B,,) C,4 | !fermata!B,,8 |] %967
w: weak we may be,|we bring you our|lives _ and|hearts.|
V:4
 z8 | (A,,4 E,4) | F,4 E,2 A,2- | A,2 G,2 F,4 | E,2 C,2 D,4 | (A,3 G,/F,/ E,2) E,2 | C,4 z4 | %7
w: |The _|Pas- sion of|_ our Lord|Je- sus Christ,|Je- * * * sus|Christ,|
 z4 A,4- | A,2 G,2 F,2 E,2 | (D,2 C,2) G,2 G,2 | C,8 | z8 | z8 | z2 (G,4 E,2) | %14
w: of|_ our Lord, our|Lord _ Jes- sus|Christ,|||as _|
 (G,2 A,2 G,E,=F,D, | E,C, F,2 C,4) | z8 | z8 | z8 | z2 G,2 ^F,2 F,F, | G,G,/G,/ G,=F, (E,4 | %21
w: told, _ _ _ _ _|_ _ _ _||||as told by the|ho- ly e- van- ge- list|
 F,2) (D,2 A,4) | D,4 z4 | z2 A,2 F,2 F,F, | E,E,/E,/ E,D, (^C,4 | D,2 A,,2 E,4) | A,,8 | z8 | %28
w: _ John, _|John,|as told by the|ho- ly e- van- ge- list|_ _ _|John,||
 z4 z2 F,2 | D,2 D,D, E,E,/E,/ E,D, | (C,4 D,2) D,2 | B,,2 B,,B,, C,C,/C,/ C,B,, | A,,8 | %33
w: as|told by the ho- ly e- van- ge-|list, _ as|told by the ho- ly e- van- ge-|list,|
 z2 (A,,2 A,4) | E,8 || z8 | z12 | z2 z2 z4 z8 z8 z8 z4 | z24 | z24 | z2 z2 z4 z8 z8 z8 | z32 | %42
w: John, _|John.||||||||
 z28 | z2 z2 z4 z8 z8 z8 z8 | z2 z2 z4 z8 z4 | z12 | z16 | z32 | z22 | z8 | z20 | z8 | z8 | z8 | %54
w: ||||||||||||
 z8 | z8 | z8 | z18 | z8 | z8 | z8 | z8 | z8 | z8 | z8 ||[M:3/4] z6 | E,2 E,2 F,2 | E,3 E, A,,2 | %68
w: ||||||||||||Je- sus of|Na- za- reth,|
 G,2 G,2 z2 | z6 | G,2 G,2 z2 | E,2 E,2 z2 | F,2 F,2 F,2 | G,4 G,2 | C,4 z2 | z2 A,2 A,2 | %76
w: Je- sus,||Je- sus,|Je- sus,|Je- sus, of|Na- za-|reth,|Je- sus|
 G,2 F,3 F, | E,6 || z6 | z18 | z6 | z6 | z6 | z6 | z6 | z6 | z6 | z6 | z6 | z6 | z14 | z6 | z6 | %93
w: of Na- za-|reth.||||||||||||||||
 z6 | z6 | z6 | z6 | z6 | z6 | z6 | z6 | z6 | z20 | z16 | z18 | z14 | z28 | z20 | z6 | z20 | z6 | %111
w: ||||||||||||||||||
 z6 | z6 | z6 | z6 | z6 | z6 | z6 | z16 | z6 | z6 | z6 | z6 | z6 | z6 |[M:3/4] z6 | E,2 E,2 F,2 | %127
w: |||||||||||||||Je- sus of|
 E,3 E, A,,2 | G,2 G,2 z2 | z6 | G,2 G,2 z2 | E,2 E,2 z2 | F,2 F,2 F,2 | G,4 G,2 | C,4 z2 | %135
w: Na- za- reth,|Je- sus,||Je- sus,|Je- sus,|Je- sus, of|Na- za-|reth,|
 z2 A,2 A,2 | G,2 F,3 F, | E,6 || z6 | z6 | z18 | z6 | z6 | z6 | z6 | z6 | z6 | z6 | z6 | z6 | z6 | %151
w: Je- sus|of Na- za-|reth.||||||||||||||
 z6 | z28 | z22 | z20 | z6 | z6 | z2 z2 z4 z8 z8 z4 z2 | z36 | z16 | z14 | z10 | z16 | z18 | z20 | %165
w: ||||||||||||||
 z18 | z6 | z6 | z6 | z6 | z6 | z6 | z26 | z20 | z24 | z6 | z24 | z18 | z2 z2 z4 z8 z8 z2 | z20 | %180
w: |||||||||||||||
 z28 | z24 | z30 | z36 | z2 z2 z4 z8 z8 z8 z8 | z2 z2 z4 z8 z8 z8 | z2 z2 z4 z8 z8 z8 z4 z2 | z30 | %188
w: ||||||||
 z2 z2 z4 z8 z8 z8 z8 | z2 z2 z4 z8 z8 z2 | z20 | z2 z2 z4 z8 z4 z2 | z6 | z40 | z6 | z14 | z6 | %197
w: |||||||||
 z6 | z6 | z6 | z6 | z6 | z6 | z6 | z6 | z2 z2 z4 z8 z8 z2 | z20 | z16 | z36 | z38 | %210
w: |||||||||||||
 z2 z2 z4 z8 z8 z8 z4 | z18 | z2 z2 z4 z8 z4 | z6 | z6 | z6 | z6 | z6 | z6 | z6 | z6 | z6 | z6 | %223
w: |||||||||||||
 z6 | z6 | z6 | z34 | z30 | z16 | z24 | z26 | z18 | z24 | z24 | z20 | z22 | z6 | z6 | z6 | z6 | %240
w: |||||||||||||||||
 z6 | z16 | z36 | z14 | z6 | z34 | z6 | z6 | z6 | z6 | z6 | z6 | z6 | z14 | z6 | z6 | z6 | z6 | %258
w: ||||||||||||||||||
 z6 | z6 | z6 | z6 | z24 | z28 | z24 | z2 z2 z4 z8 z2 | z6 | z6 | z6 | z22 | z24 | %271
w: |||||||||||||
 z2 z2 z4 z8 z8 z8 z8 | z18 | A,,2 A,2 ^G,2 G,G, | A,2 A,2 D,2 D,2 | z2 G,G, C2 G,2 | A,4 D,4 | %277
w: ||Are you not one of|his di- sci- ples,|one of his di-|sci- ples,|
 z2 B,,B,, E,2 A,,2 | (^G,,4 A,,4) | E,8 || z6 | z28 | z6 | z6 | z6 | z6 | z6 | z16 | z6 | z6 | %290
w: one of his di-|sci- *|ples?|||||||||||
 z6 | z6 | z6 | z6 | z6 | z6 | z6 | z6 | z6 | z6 | z6 | z2 z2 z4 z8 z8 | z22 | z30 | z6 | z6 | z6 | %307
w: |||||||||||||||||
 z6 | z6 | z6 | z6 | z30 | z6 | z6 | z6 | z6 | z24 | z26 | z2 z2 z4 z8 z8 z8 z4 | z16 | %320
w: |||||||||||||
 z2 z2 z4 z8 z8 z4 z2 | z28 | z30 | z2 z2 z4 z8 z4 | z12 | z6 | z24 | z2 z2 z4 z8 | z6 | z6 | z16 | %331
w: |||||||||||
 z6 | z6 | z6 | z6 | z6 | E,2 D,2 E,2 F,2 | G,2 z E, D,2 E,2 | (E,2 F,2 G,2 A,2 | G,8) | G,8 | %341
w: |||||If this man were|not, were not a|cri- * * *||mi-|
 C,8 | z8 | z2 z C, A,,A,,A,,A,, | E,4 A,,A,, | (A,2- F,3 E, D,2- | D,2) E,2 A,,4 | %347
w: nal||would not have han- ded|him ov- ver,|o- * * ver|_ to you,|
 z2 F,F, D,D,D,D, | G,2 z G, E,E,E,E, | A,2 z A, F,F,F,F, | C2 C,C, (C3 B, | A,3 G, F,3 E, | %352
w: we would not have han- ded|him, would not have han- ded|him, would not have han- ded|him o- ver, o- *||
 D,2 C,B,,) A,,2 A,,2 | !fermata!E,8 || z6 | z22 | z6 | z6 | z6 | z6 | z6 | z6 | z6 | %363
w: * * * ver to|you.||||||||||
 z2 z2 z4 z8 z2 | z14 | z20 | z6 | z6 | z6 | z6 | z6 | z22 | z6 | z6 | z6 | z6 | z6 | z6 | %378
w: |||||||||||||||
[M:2/2] z8 | z8 | z8 | E,2 E,2 A,2 E,2 | F,2 ^C,2 D,2 D,2 | E,4 E,4 | E,6 E,2 | E,8 || z8 | z28 | %388
w: |||We are not per-|mit- ted to put|a- ny-|one to|death.|||
 z2 z2 z4 z8 z8 z8 z4 z2 | z30 | z14 | z18 | z8 | z2 z2 z4 z8 z8 z2 | z8 | z8 | z8 | z8 | z8 | %399
w: |||||||||||
 z2 z2 z4 z8 z2 | z8 | z8 | z8 | z8 | z8 | z8 | z8 | z8 | z22 | z2 z2 z4 z8 z8 z4 z2 | z8 | z16 | %412
w: |||||||||||||
 z8 | z8 | z8 | z8 | z8 | z8 | z2 z2 z4 z8 z4 | z2 z2 z4 z8 z8 z8 z8 z4 | z2 z2 z4 z8 | z8 | z8 | %423
w: |||||||||||
 z8 | z8 | z8 | z8 | z8 | z8 | z8 | z8 | z8 | z2 z2 z4 z8 z4 | z8 | z8 | z8 | z8 | z8 | z8 | z8 | %440
w: |||||||||||||||||
 z28 | z24 | z2 z2 z4 z8 z8 z8 z8 z8 z4 z2 | z14 | z22 | z8 | z8 | z8 | z8 | z8 | z18 | %451
w: |||||||||||
 z2 z2 z4 z4 z2 | z8 | z8 | z8 | z8 | z8 | z22 | z8 | z8 | z8 | z8 | z8 | z8 | z8 | z18 | z8 | z8 | %468
w: |||||||||||||||||
 z8 | z8 | z8 | z8 | z8 | z8 | z2 z2 z4 z8 z8 z4 z2 | z2 z2 z2 z2 z8 z4 | z2 z2 z4 z8 | z8 | %478
w: ||||||||||
 z2 z2 z4 z8 z8 z4 | z2 z2 z4 z8 z8 | z20 | z8 | z18 | z8 | z8 | z8 | z8 | z8 | z8 | z8 | %490
w: ||||||||||||
 z2 z2 z4 z8 z4 | z8 | z8 | z8 | z8 | z8 | z8 | z8 | z20 | z28 | z16 | z8 | z22 | z20 | z32 | %505
w: |||||||||||||||
 z2 z2 z4 z8 z8 z8 z4 z2 | z8 | z8 | z8 | z8 | z8 | z18 | z8 | z8 | z8 | z8 | z8 | %517
w: ||||||||||||
[M:2/2] z2 A,2 E,2 E,2 | z2 (G,D,) F,3 F, | E,2 A,3 A, A,2 | G,3 G, D,4 | z2 A,2 E,2 E,2 | %522
w: Not this man,|but _ Ba- rab-|bas, Ba- rab- bas,|Ba- rab- bas!|Not this man|
 z2 (A,E,) F,3 F, | E,8 | z2 E,2 B,,2 B,,2 | z2 C,2 G,,2 G,,2 | z2 (D,F,) A,4- | A,4 A,,4 | E,8 || %529
w: but _ Ba- rab-|bas!|Not this man|Not this man|but _ Ba-|* rab-|bas!|
 z8 | z2 z2 z4 z8 z8 | z2 z2 z4 z8 z8 z2 | z2 z2 z4 z8 z8 z8 z8 z8 z4 | z26 | z32 | z8 | %536
w: |||||||
 E,2 (E,2 D,4) | E,8 | z8 | G,2 E,E, C,2 F,2- | F,2 E,2 A,4 | G,8 | G,2 E,E, C,2 F,2- | %543
w: Hail, hail, _|hail||King of the Jews, hail,|_ hail, hail,|hail;|King of the Jews hail,|
 (F,2 E,2) F,4 | E,6 !tenuto!E,2 | C,C, !tenuto!A,,2 (!tenuto!A,2 G,2) | (C,3 D, E,4) | A,,8 || %548
w: _ _ hail,|hail, King|of the Jews, hail, _|hail, _ _|hail!|
 z8 | z24 | z22 | z16 | z8 | z2 z2 z4 z4 | z2 z2 z4 z8 z8 | z2 z2 z4 z8 | z26 | z8 | z2 z2 z4 z8 | %559
w: |||||||||||
 z24 | z16 | z2 z2 z4 z8 z2 | z8 | z26 | z8 | z8 | z8 | z8 | z8 | z8 | z8 | z2 z2 z4 z4 z2 | z24 | %573
w: ||||||||||||||
 z16 |[M:3/4] z4 (C,2 | F,3 E, D,2 | E,3 D, C,2 | D,3) D, D,2 | C,4 (C,2 | F,3) G, A,2 | G,4 (G,2 | %581
w: |Cru-|||* ci- fy|him, cru-|* ci- fy|him, cru-|
 A,3 G, F,2 | G,3 F, E,2 | F,3) F, F,2 | E,6- | E,6- | E,6- | !fermata!E,6 || z6 | %589
w: ||* ci- fy|him.|_||||
 z2 z2 z4 z8 z4 z2 | z6 | z6 | z6 | z6 | z6 | z6 | z6 | z6 | z24 | z20 | z22 | z6 | z6 | z22 | z6 | %605
w: ||||||||||||||||
 z6 | z6 | z6 | z6 | z6 || z4 E,2 E,E, | E,2 D,2 E,4- | E,2 E,E, D,E,F,D, | (A,2 G,2) (E,F, D,2) | %614
w: |||||'We have a|law, a law,|_ and ac- cor- ing to that|law _ he _ _|
 C,2 C,2 C,4 | z A, A,A, A,2 G,2 | A,8 | z4 A,,B,,(C,A,,) | E,2 D,2 (B,,C,) A,,2 | G,,6 z G,, | %620
w: ought to die|We have a law, a|law|and by that _|law he ought _ to|die be-|
 G,,G,,A,,B,, C,2 B,,2 | A,,2 ^G,,2 A,,4 | E,4 A,,4 | z4 z D,E,F, | (G,2 F,2 E,2) D,2 | C,6 C,2 | %626
w: cause he has _ claimed to|be the Son|of God,|to be the|Son _ _ of|God, has|
 D,2 E,2 F,2 F,2 | E,4 E,4 | A,,8 || z6 | z2 z2 z4 z8 z4 | z24 | z26 | z16 | z8 | z2 z2 z4 z8 | %636
w: claimed to be the|Son of|God.'||||||||
 z6 | z8 | z6 | z6 | z8 | z6 | z6 | z6 | z2 z2 z4 z8 z8 z2 | z20 | z6 | z6 | z22 | z32 | z26 | z6 | %652
w: ||||||||||||||||
 z6 | z6 | z6 | z6 | z6 | z16 | z6 | z6 | z6 | z6 | z6 | z6 | z6 | z6 | z24 | z32 | z32 | z24 | %670
w: ||||||||||||||||||
 z6 | z6 | z26 | z22 |[M:4/4] A,2 F,F, E,2 A,2 | G,2 z2 z2 A,A, | G,2 z G, F,2 F,2 | E,4 E,4 | %678
w: ||||If you re- lease this|man, you are|not, are not the|em- pror's|
 A,,4 z4 | z4 z2 A,A, | G,2 G,G, F,2- F,F, | (E,4 F,4 | G,3) G, G,4 | C,8 | z8 | z2 G,2 (E,2 C,2) | %686
w: friend,|you are|not, you are not, _ the|em- *|* pe- ror's|frind;||sets him- *|
 E,3 B, A,2 G,2 | A,3 A, G,4 | z8 | z8 | z8 | z2 D,D, D,2 D,2 | E,E,E,E, C,3 C, | D,D,D,D, (B,,4 | %694
w: self a- gainst the|em- pe- ror,||||e- v'ry one who|claims to be a king, who|claims to be a king|
 C,2) z (G, E,2) C,2 | (C3 B, A,3 G,) | F,3 E, D,4- | D,4 D,4 | (E,2 A,,2 E,2) E,2 | %699
w: _ sets _ him-|self _ _ _|_ a- gainst|_ the|em- * * pe-|
 !fermata!A,,8 || z8 | z2 z2 z4 z8 z2 | z2 z2 z4 z8 z4 | z2 z2 z4 z8 z8 z8 z8 z2 | z40 | z20 | %706
w: ror.|||||||
 z20 | z8 | z8 | z8 | z30 | z8 | z8 | z8 | z8 | z8 | z20 | z8 | z8 | z8 | z16 | %721
w: |||||||||||||||
[M:3/4] E,2 A,2 F,2 | E,2 E,2 ^F,F, | ^G,3 G, A,2 | A,3 A, ^G,2 | A,4 z2 | A,,2 A,2 F,2 | %727
w: A- way with|him, cru- ci- fy,|cru- ci- fy,|cru- ci- fy|him!|A- way with|
 E,2 z2 z2 | D,3 D, E,2 | ^F,3 G, A,2 | B,3 A, G,2 | G,3 G, ^F,2 | G,2 G,,2 G,,G,, | C,3 B,, A,,2 | %734
w: him,|cru- ci- fy,|cru- ci- fy,|cru- ci- fy,|cru- ci- fy|him! cru- ci- fy|cru- ci- fy,|
 E,2 E,3 E, | E,2 E,3 E, | A,2 A,3 A, | E,6 || z6 | z20 | z2 z2 z4 z8 z4 z2 | z6 | z6 | z6 | z6 || %745
w: cru- ci- fy,|cru- ci- fy,|cru- ci- fy|him!||||||||
 z6 | z2 z2 z4 z8 z8 z4 z2 | z6 | z6 | z6 | z6 | z6 | z6 | z2 z2 z4 z4 z2 | z16 | z6 | z6 | z6 | %758
w: |||||||||||||
 z6 | z6 |[M:4/4] z8 | E,2 E,F, G,F,D,E, | F,4 E,4 | A,4 G,4 | F,3 F, C,4 | z C, E,F, G,F,D,E, | %766
w: |||We have no king, we have no|king _|but the|em- pe- ror,|we have no king, we have no|
 (F,2 C,2) E,2 A,,2 | D,6 D,2 | G,,4 z E, E,F, | G,3 F, D,E,F,E, | C,D, (E,2 D,4) | %771
w: king _ but the|em- pe-|ror, we have no|king, no king, _ no _|king, no king, _|
 z D, F,G, (A,G,)(E,F,) | G,4 z4 | G,4 F,4 | E,8- | E,4 E,4 | !fermata!A,,8 || z8 | %778
w: we have no king, _ no _|king,|but the|em-|* pe-|ror.||
 z2 z2 z4 z8 z8 | z18 | z20 | z2 z2 z4 z8 z8 z2 | z2 z2 z4 z8 z8 z8 z2 | z28 | z32 | %785
w: |||||||
 z2 z2 z4 z8 z8 z4 z2 | z22 | z2 z2 z4 z8 z8 z8 z4 z2 | z18 | z48 | z56 | z26 | %792
w: |||||||
 z2 z2 z4 z8 z8 z8 z8 | z18 | z14 | z12 | z20 | z26 | z16 | z8 | z8 | z8 |[M:4/4] z4 z2 E,^G, | %803
w: ||||||||||Do not|
 A,A, ^G,E,/E,/ A,2 z2 | z2 =G,G, A,A, G,G,/G,/ | C,2 z2 z4 | z8 | z8 | z8 | %809
w: write, "The King of the Jews",|do not write, "The King of the|Jews",||||
 z D, ^C,C, D,D,/D,/ A,2 | z D, ^C,C, D,2 F,F, | (E,2 D,2) E,4 | A,,4 z2 F,2- | F,F, F,2 (F,4- | %814
w: "I am the King of the Jews,|I am the King of the|Jews, _ the|Jews", but|_ this man said,|
 F,2 E,2) D,2 D,2 | C,4 z4 | z8 | z C, B,,B,, C,C,/C,/ G,2 | z C, B,,B,, C,C,/C,/ G,2 | %819
w: _ _ this man|said,||I am the King of the Jews,|I am the King of the Jews,|
 z C ^G,G, A,A,/A,/ E,2 | z C ^G,G, A,A,/A,/ E,2 | z A,, ^G,,G,, A,,E, A,,2 | E,8 || z8 | z18 | %825
w: I am the King of the Jews,|I am the King of the Jews,|I am the King of the|Jews."'|||
 z8 | z8 | z8 | z8 | z8 | z8 | z8 | z2 z2 z4 z8 z2 | z20 | z8 | z8 | z8 | z8 | z8 | z2 z2 z4 z8 | %840
w: |||||||||||||||
 z24 | z18 | z28 | z2 z2 z4 z8 | z22 | z22 | z26 | z22 |[M:2/2] E,D, C,2 G,2 (F,E,) | %849
w: ||||||||Let us not tear it, _|
 (F,2 G,2 A,4) | E,4 z4 | z8 | z4 G,F, E,2 | F,E, (D,2 E,2) (D,C,) | B,,4 A,,2 A,2- | %855
w: tear _ _|it,||let us not,|let us not, _ not _|tear it, but|
 A,2 (G,F,) G,2 (F,E,) | F,2 F,2 E,4 | A,2 z2 z4 | F,2 E,E, G,4 | C,4 z4 | z8 | z8 | %862
w: _ cast _ lots, cast _|lots for it,|to|see who will get|it,|||
 z2 C,2 z E, G,2 | z4 z2 A,,2 | C,2 E,2 A,,4 | E,8 || z8 | z32 | z30 | z32 | z26 | z38 | z22 | %873
w: to to see,|see|who will get|it.'||||||||
 z26 | z24 | z2 z2 z4 z8 z4 z2 | z24 | z20 | z2 z2 z4 z8 z4 z2 | z8 | z14 | z16 | z8 | z8 | z8 | %885
w: ||||||||||||
 z2 z2 z4 z8 z8 z2 | z8 | z8 | z8 | z26 | z8 | z8 | z8 | z2 z2 z4 z4 z2 | z32 | z36 | z24 | z12 | %898
w: |||||||||||||
 z8 | z26 | z2 z2 z4 z8 z4 | z8 | z8 | z8 | z8 | z28 | z2 z2 z4 z8 z8 z8 z8 z2 | z28 | z30 | z12 | %910
w: ||||||||||||
 z8 | z30 | z2 z2 z4 z8 z8 | z8 | z8 | z8 | z8 z8 z8 z8 z8 z8 z8 | z32 |[M:4/4] z4 A,2 A,2 | A,8 | %920
w: ||||||||Help us|Christ,|
 E,4 G,4- | G,4 F,4 | E,8- | E,8 | z8 | z8 | D,2 E,2 F,2 G,2 | A,4 A,4 | E,2 ^F,2 G,2 A,2 | %929
w: _ Son|_ of|God,|_|||through your bit- ter|tor- ment,|through your bit- ter|
 B,4 B,,4 | z4 (E,2 D,2) | ^C,2 C,2 (D,2 =C,B,,) | A,,4 z4 | z4 (A,2 B,2) | C2 A,2 (A,2 G,F, | %935
w: tor- ment,|that _|we your ser- * *|vants|that _|we your ser- * *|
 E,4) E,2 F,2 | G,8 | C,8 | D,2 E,2 F,4 | E,4 E,4 | A,,4 A,,4 | z4 A,,2 A,,A,, | %942
w: * vants, your|ser-|vants|may for e-|ver shun|e- vil,|and of your|
 (B,,2 D,2) D,2 ^C,2 | D,4 z4 | A,2 E,E, ^F,4 | G,2 =F,2 (E,4 | D,8) | z8 | z8 | %949
w: death _ and its|cause,|and of your death|and its cause|_|||
 (D,2 E,2) F,2 G,G, | (A,8 | G,8) | G,4 G,2 A,2 | (B,2 G,2) A,2 G,F, | E,4 C,2 D,2 | %955
w: be _ fear- ful- ly|mind-||ful, so though|weak _ as we may|be, we will|
 (E,2 F,2) E,2 ^F,2 | (^G,2 A,2 E,3) E, | A,,4 z4 | z8 | z8 | z8 | D,2 E,2 F,2 D,2 | %962
w: bring _ you our|hearts _ _ and|lives,||||so though poor and|
 D,2 (C,B,,) A,,4 | (A,,2 B,,2) C,2 E,2 | A,6 ^G,2 | A,4 A,4 | E,8 |] %967
w: weak we may be,|we _ will bring|you our|lives and|hearts.|

